!!!!SEGMENT: pl-sa--152-a-iv-2--001_bauer--missa-in-f-kyrie.krn
!!!cenid: 17xx:672
!!!COM: Bauer
!!!COM-rismid: pe30005329
!!!CDT:
!!!CNT:
!!!OPR: Missa in F
!!!OTL: Kyrie
!!!OMV: 001
!!!PDT:
!!!AGN: Sacred; Mass
!!!SMS-siglum: PL-SA
!!!SMS-shelfmark: 152/A IV 2
!!!SMS-shelfwork: 001-001 M
!!!SMS-variant:
!!!SMS-altvar:
!!!NIFC-rismid: 1001035512
!!!URL-scan: http://bc.bdsandomierz.pl/dlibra/publication/1538/edition/1506/content
!!!ONB-nifc: UWAGA: części Mszy: Kyrie, Gloria, Credo, Sanctus, Benedictus, Agnus Dei, Dona nobis
**kern	**kern	**dynam	**kern	**dynam	**kern	**text	**kern	**text	**kern	**text	**kern	**kern	**kern
*part9	*part8	*part8	*part7	*part7	*part6	*part6	*part5	*part5	*part4	*part4	*part3	*part2	*part1
*group3	*group3	*	*group3	*	*group2	*	*group2	*	*group2	*	*group1	*group1	*
*staff9	*staff8	*	*staff7	*	*staff6	*staff6	*staff5	*staff5	*staff4	*staff4	*staff3	*staff2	*staff1
*I"Fundamento	*I"Violino Secondo:	*	*I"Violino Primo	*	*I"Baſso.	*	*I"Tenore	*	*I"Canto	*	*I"Cornu Secondo: in F	*I"Cornu Primo in F	*I"Flauto Primo
*I'Vc.	*I'Vn II	*	*I'Vn I	*	*I'B.	*	*I'T.	*	*I'C.	*	*I'C. in F	*I'C. I in F	*I'Fl. I
*clefF4	*clefG2	*	*clefG2	*	*clefF4	*	*clefC4	*	*clefC1	*	*clefG2	*clefG2	*clefG2
*	*	*	*	*	*	*	*	*	*	*	*ITrd4c7	*ITrd4c7	*
*k[b-]	*k[b-]	*	*k[b-]	*	*k[b-]	*	*k[b-]	*	*k[b-]	*	*k[b-]	*k[b-]	*k[b-]
*F:	*F:	*	*F:	*	*F:	*	*F:	*	*F:	*	*F:	*F:	*F:
*M4/4	*M4/4	*	*M4/4	*	*M4/4	*	*M4/4	*	*M4/4	*	*M4/4	*M4/4	*M4/4
*met(c)	*met(c)	*	*met(c)	*	*met(c)	*	*met(c)	*	*met(c)	*	*met(c)	*met(c)	*met(c)
=1	=1	=1	=1	=1	=1	=1	=1	=1	=1	=1	=1	=1	=1
*	*^	*	*	*	*	*	*	*	*	*	*	*	*
!LO:TX:a:i:t=Allo&colon;Moderatto	!LO:TX:a:i:t=Allo Moderatto	!	!	!LO:TX:a:i:t=Allo&colon; Moderatto&colon;	!	!LO:TX:a:i:t=Allo Moderatto	!	!LO:TX:a:i:t=Allo Moderato.	!	!LO:TX:a:i:t=Moderatto	!	!LO:TX:a:i:t=Allo&colon; Moderatto	!LO:TX:a:i:t=Allo Moderatto	!LO:TX:a:i:t=Allo Moderatto
!	!	!	!	!	!	!LO:TX:b:t=P:problem:"K" przed kluczem	!	!LO:TX:b:t=P:problem:"K" przed kluczem	!	!LO:TX:b:t=P:problem:"K" przed kluczem	!	!	!	!
8.F\L	8.a/L	8.f\L	.	8.ffL 8.a\	.	8.F\	Ky-	8.F/	[K]y-	8.ff\	[K]y-	8.A/L	8.f\L	8.fff\L
16F\Jk	16a/Jk	16f\Jk	.	16ffJk 16a\	.	16F\	-ri-	16F/	-ri-	16ff\	-ri-	16A/Jk	16f\Jk	16fff\Jk
8A\L	8a\L	4ryy	.	16ff\LL	.	8A\	-e-	8A/	-e-	8ff\	-e	8A/L	8f\L	8fff\L
.	.	.	.	16cc\	.	.	.	.	.	.	.	.	.	.
8c\J	16cc\L	.	.	16aa\	.	8c\	.	8c\	.	8ff\	e-	8f/J	8a\J	8fff\J
.	16a\JJ	.	.	16ff\JJ	.	.	.	.	.	.	.	.	.	.
8f\L	(32cc\LLL	2ryy	.	(32aa\LLL	.	8C/	-ley-	8C/	-ley-	8ee\	-ley-	8c/L	8g\L	16eee\LL
.	32b-\	.	.	32gg\	.	.	.	.	.	.	.	.	.	.
.	32a\	.	.	32ff\	.	.	.	.	.	.	.	.	.	16ggg\J
.	32b-\JJ)	.	.	32gg\JJ)	.	.	.	.	.	.	.	.	.	.
8F\J	8a\J	.	.	8ff\J	.	8F\	-son.	8F/	-son	8ff\	-son	8A/J	8f\J	8fff\J
4r	8r	.	.	8r	.	4r	.	4r	.	4r	.	4r	4r	4r
.	16aa\LL	.	.	16ccc\LL	.	.	.	.	.	.	.	.	.	.
.	16ff\JJ	.	.	16aa\JJ	.	.	.	.	.	.	.	.	.	.
=2	=2	=2	=2	=2	=2	=2	=2	=2	=2	=2	=2	=2	=2	=2
4r	16b-\LL	1ryy	.	16gg\LL	.	4r	.	4r	.	4r	.	4r	4r	4r
.	16a\	.	.	16ff\	.	.	.	.	.	.	.	.	.	.
.	16cc\	.	.	16aa\	.	.	.	.	.	.	.	.	.	.
.	16a\JJ	.	.	16ff\JJ	.	.	.	.	.	.	.	.	.	.
8r	16b-\LL	.	.	16dd\LL	.	8r	.	8r	.	8r	.	8r	8r	8r
.	16a\	.	.	16cc\	.	.	.	.	.	.	.	.	.	.
8F\L	16dd\	.	.	16ff\	.	8F\	e-	8F/	e-	8cc\	e-	8f\L	8a\L	8fff\L
.	16b-\JJ	.	.	16dd\JJ	.	.	.	.	.	.	.	.	.	.
8C\	16a/LL	.	.	16cc\LL	.	8C/	-ley-	8C/	-ley-	8b-\	-ley-	8c\	8g\	8eee\
.	16g/J	.	.	16b-\J	.	.	.	.	.	.	.	.	.	.
8F\J	8f/J	.	.	8a\J	.	8F\	-son	8F/	-son	8a\	-son	8A\J	8f\J	8fff\J
4r	8r	.	.	8r	.	4r	.	4r	.	4r	.	4r	4r	4r
.	16aa\LL	.	.	16ccc\LL	.	.	.	.	.	.	.	.	.	.
.	16ff\JJ	.	.	16aa\JJ	.	.	.	.	.	.	.	.	.	.
*	*v	*v	*	*	*	*	*	*	*	*	*	*	*	*
=3	=3	=3	=3	=3	=3	=3	=3	=3	=3	=3	=3	=3	=3
4r	16b-\LL	.	16gg\LL	.	4r	.	4r	.	4r	.	4r	4r	4r
.	16a\	.	16ff\	.	.	.	.	.	.	.	.	.	.
.	16cc\	.	16aa\	.	.	.	.	.	.	.	.	.	.
.	16b-\JJ	.	16ff\JJ	.	.	.	.	.	.	.	.	.	.
8r	16b-\LL	.	16dd\LL	.	8r	.	8r	.	8r	.	8r	8r	8r
.	16a\	.	16cc\	.	.	.	.	.	.	.	.	.	.
!LO:TX:a:t=P:problem:mixed beam	!	!	!	!	!	!	!	!	!	!	!	!	!
8F\L	16dd\	.	16ff\	.	8F\	e-	8F/	e-	8cc\	e-	8f/L	8a\L	8fff\L
.	16b-\JJ	.	16dd\JJ	.	.	.	.	.	.	.	.	.	.
8C/	16a/LL	.	16cc\LL	.	8C/	-ley-	8C/	-ley-	8b-\	-ley-	8c/	8g\	8eee\
.	16g/J	.	16b-\J	.	.	.	.	.	.	.	.	.	.
8FF/J	8f/J	.	8a\J	.	8F\	-son	8F/	-son	8a\	-son	8A/J	8f\J	8fff\J
4r	8r	.	8r	.	4r	.	4r	.	4r	.	4r	4r	4r
.	(32f/LLL	.	32f/LLL	.	.	.	.	.	.	.	.	.	.
.	32e/	.	32e/	.	.	.	.	.	.	.	.	.	.
.	32f/	.	32f/	.	.	.	.	.	.	.	.	.	.
.	32g/JJJ)	.	32g/JJJ	.	.	.	.	.	.	.	.	.	.
!	!	!	!LO:LB:g=original	!	!	!	!	!	!	!	!	!	!
=4	=4	=4	=4	=4	=4	=4	=4	=4	=4	=4	=4	=4	=4
*	*	*	*	*	*	*	*	*	*	*	*	*	*2\right
!LO:TX:a:t=P:problem:mixed beam	!	!	!	!	!	!	!	!	!	!	!	!	!
8FF/L	8f/L	.	8a\L	.	8.F\	Ky-	8.F/	Ky-	8.cc\	Ky-	4A/	4f\	2fff\
8F\	32a/LL	.	(32ff\LL	.	.	.	.	.	.	.	.	.	.
.	32g/	.	32ee\	.	.	.	.	.	.	.	.	.	.
.	32a/	.	32ff\	.	16G\	-ri-	16G/	-ri-	16ff\	-ri-	.	.	.
.	32b-/JJJ	.	32gg\JJJ)	.	.	.	.	.	.	.	.	.	.
!	!LO:LB:g=original	!	!	!	!	!	!	!	!	!	!	!	!
8A\	16ff\LL	.	16aa\LL	.	8A\	-e	8A/	-e	8ff\	-e	4f\	4a\	.
.	16cc\	.	16ff\	.	.	.	.	.	.	.	.	.	.
8F\J	16aa\	.	16ccc\	.	8F\	e-	8F/	e-	8ff\	e-	.	.	.
.	16ff\JJ	.	16aa\JJ	.	.	.	.	.	.	.	.	.	.
*	*	*	*	*	*	*	*	*	*	*	*	*2\right	*
!LO:TX:a:t=P:problem:mixed beam	!	!	!	!	!	!	!	!	!	!	!	!	!
8c\L	16ff\LL	.	16aa\LL	.	4c\	-ley-	4c\	-ley-	4ff\	-ley-	2c/	2g\	2eee\
.	16ee\J	.	16gg\J	.	.	.	.	.	.	.	.	.	.
8C/J	8ee\J	.	8gg\J	.	.	.	.	.	.	.	.	.	.
4C/	8r	.	8r	.	4C/	-son	4C/	-son	4ee\	-son	.	.	.
.	32e/LLL	.	32cc\LLL	.	.	.	.	.	.	.	.	.	.
.	32d/	.	32bn\	.	.	.	.	.	.	.	.	.	.
.	32e/	.	32cc\	.	.	.	.	.	.	.	.	.	.
.	32f/JJJ	.	32dd\JJJ	.	.	.	.	.	.	.	.	.	.
!	!	!	!	!	!LO:LB:g=original	!	!	!	!LO:LB:g=original	!	!	!	!
=5	=5	=5	=5	=5	=5	=5	=5	=5	=5	=5	=5	=5	=5
8r	8e/	.	8ee\L	.	8.c\	Ky-	8.c\	Ky-	8.cc\	Ky-	4c/	4g\	2eee\
8C/L	32ee\LLL	.	(32gg\LL	.	.	.	.	.	.	.	.	.	.
.	32dd\	.	32ff\	.	.	.	.	.	.	.	.	.	.
.	32ee\	.	32gg\	.	16d\	-ri-	16d\	-ri-	16ee\	-ri-	.	.	.
.	32ff\JJJ	.	32aa\JJJ)	.	.	.	.	.	.	.	.	.	.
8E/	16gg\LL	.	16bb-\LL	.	8e\	-e	8e\	-e	8gg\	-e	4g\	4b-\	.
.	16ee\	.	16gg\	.	.	.	.	.	.	.	.	.	.
8C/J	16bb-\	.	16ddd\	.	8c\	e-	8c\	e-	8gg\	e-	.	.	.
.	16gg\JJ	.	16bb-\JJ	.	.	.	.	.	.	.	.	.	.
!LO:TX:a:t=P:problem:mixed beam	!	!	!	!	!	!	!	!	!	!	!	!	!
*	*	*	*	*	*	*	*	*	*	*	*2\right	*	*
8F\L	16gg\LL	.	16bb-\LL	.	4f\	-ley-	4f\	-ley-	4gg\	-ley-	2f\	2a\	2fff\
.	16ff\J	.	16aa\J	.	.	.	.	.	.	.	.	.	.
8FF/J	8ff\J	.	8aa\J	.	.	.	.	.	.	.	.	.	.
4FF/	8r	.	8r	.	4F\	-son	4F/	-son	4ff\	-son	.	.	.
.	16aa\LL	.	16ccc\LL	.	.	.	.	.	.	.	.	.	.
.	16bb-\JJ	.	16ddd\JJ	.	.	.	.	.	.	.	.	.	.
!LO:LB:g=original	!	!	!	!	!	!	!	!	!	!	!	!	!
=6	=6	=6	=6	=6	=6	=6	=6	=6	=6	=6	=6	=6	=6
!LO:TX:a:t=P:problem:mixed beam	!	!	!	!	!	!	!	!	!	!	!	!	!
8F\L	16aa\LL	.	16ccc\LL	.	8F\	Ky-	8F/	Ky-	8cc\	Ky-	4f\	4a\	2fff\
.	16ff\	.	16aa\	.	.	.	.	.	.	.	.	.	.
8FF/	16bb-\	.	16ddd\	.	8A\	-ri-	8A/	-ri-	8cc\	-ri-	.	.	.
.	16aa\JJ	.	16ccc\JJ	.	.	.	.	.	.	.	.	.	.
8E\	16aa\LL	.	16ccc\LL	.	8G\	-e	8G/	-e	8ee\	-e	4g\	4b-\	.
.	16gg\	.	16bb-\	.	.	.	.	.	.	.	.	.	.
8F\J	16gg\	.	16bb-\	.	8F\	e-	8F/	e-	8ff\	e-	.	.	.
.	16ff\JJ	.	16aa\JJ	.	.	.	.	.	.	.	.	.	.
!	!	!	!	!	!	!	!LO:LB:g=original	!	!	!	!	!	!
8C\L	16ff\LL	.	16aa\LL	.	8E\L	-ley-	8E/L	-ley-	4ee\	-ley-	2c/	2g\	2eee\
.	16ee\	.	16gg\	.	.	.	.	.	.	.	.	.	.
8G\	16ee\	.	16gg\	.	8G\J	.	8G/J	.	.	.	.	.	.
.	16ff\JJ	.	16aa\JJ	.	.	.	.	.	.	.	.	.	.
8E\	8aa\L	.	8ccc\L	.	8E\L	-son	8E/L	-son	8ee\	-son	.	.	.
8C\J	8gg\J	.	8bb-\J	.	8C\J	.	8C/J	.	8ee\	e-	.	.	.
!	!	!	!LO:LB:g=original	!	!	!	!	!	!	!	!	!	!LO:LB:g=original
=7	=7	=7	=7	=7	=7	=7	=7	=7	=7	=7	=7	=7	=7
8E\L	16ff\LL	.	16aa\LL	.	8F\	Ky-	8F/	Ky-	4ff\	-ley-	4f\	4a\	2fff\
.	16aa\	.	16ccc\	.	.	.	.	.	.	.	.	.	.
8C\J	16bb-\	.	16ddd\	.	8G\	-ri-	8G/	-ri-	.	.	.	.	.
.	16aa\JJ	.	16ccc\JJ	.	.	.	.	.	.	.	.	.	.
8AA/L	16bb-\LL	.	16ddd\LL	.	8A\	-e	8A/	-e-	8cc\	-son	4r	4r	.
.	16aa\	.	16ccc\	.	.	.	.	.	.	.	.	.	.
8FF/J	16gg\	.	16bb-\	.	8F\	e-	8F/	.	8a\	e-	.	.	.
.	16ff\JJ	.	16aa\JJ	.	.	.	.	.	.	.	.	.	.
8C/L	8ff\L	.	8aa\L	.	8c\	-ley-	8c\	-ley-	8a\	-ley-	8f\L	8a\L	8fff\L
8CC/J	8ee\J	.	8gg\J	.	8C/	-son	8C/	-son	8g\	-son	8c\J	8g\J	8eee\J
4r	4r	.	4r	.	4r	.	4r	.	4r	.	4r	4r	4r
!	!LO:LB:g=original	!	!	!	!	!	!	!	!	!	!LO:LB:g=original	!LO:LB:g=original	!
=8	=8	=8	=8	=8	=8	=8	=8	=8	=8	=8	=8	=8	=8
!LO:TX:a:t=4.	!	!LO:DY:b:rj:t=p&colon;	!	!LO:DY:b:rj:t=p.	!	!	!	!	!	!	!LO:TX:a:t=4.	!LO:TX:a:t=4.	!LO:TX:a:i:t=Solo
00r	4c/	p	4c/	p	4e\	Chri-	4e\	Chri-	4gg\	Chri-	00r	00r	4gg\
.	8e/L	.	8e/L	.	8e\	-ste	8e\	-ste	8gg\	-ste	.	.	8gg\L
.	8g/J	.	8g/J	.	8d\	e-	8d\	e-	8ff\	e-	.	.	8ff\J
.	8cc\L	.	8cc/L	.	16d\LL	-ley-	16d\LL	-ley-	16ff\LL	-ley-	.	.	16ee\LL
.	.	.	.	.	16c\JJ	.	16c\JJ	.	16ee\JJ	.	.	.	16gg\
.	8g\	.	8g/	.	8c\	-son	8c\	-son	8ee\	-son	.	.	16ccc\
.	.	.	.	.	.	.	.	.	.	.	.	.	16bb-\JJ
.	8e\	.	8e/	.	4r	.	4r	.	4r	.	.	.	16aa\LL
.	.	.	.	.	.	.	.	.	.	.	.	.	16gg\
.	8c\J	.	8c/J	.	.	.	.	.	.	.	.	.	16ff\
.	.	.	.	.	.	.	.	.	.	.	.	.	16ee\JJ
!	!	!	!	!	!LO:LB:g=original	!	!	!	!	!	!	!	!
=9	=9	=9	=9	=9	=9	=9	=9	=9	=9	=9	=9	=9	=9
*	*	*	*	*	*	*	*	*	*	*ij	*	*	*
.	4G/	.	4G/	.	4d\	Chri-	4d\	Chri-	4ff\	Chri-	.	.	4ff\
.	8Bn/L	.	8Bn/L	.	8d\	-ste	8d\	-ste	8ff\	-ste	.	.	8ff\L
.	8d/J	.	8d/J	.	8c\	e-	8c\	e-	8ee\	e-	.	.	8ee\J
.	8g/L	.	8g/L	.	16c\LL	-ley-	16c\LL	-ley-	16ee\LL	-ley-	.	.	16dd\LL
.	.	.	.	.	16Bn\JJ	.	16Bn\JJ	.	16dd\JJ	.	.	.	16bbn\
.	8d/	.	8d/	.	8B\	-son	8B\	-son	8dd\	-son	.	.	16ddd\
*	*	*	*	*	*	*	*	*	*	*Xij	*	*	*
.	.	.	.	.	.	.	.	.	.	.	.	.	16ccc\JJ
.	8B/	.	8B/	.	4r	.	4r	.	4r	.	.	.	16bb\LL
.	.	.	.	.	.	.	.	.	.	.	.	.	16aa\
.	8G/J	.	8G/J	.	.	.	.	.	.	.	.	.	16gg\
.	.	.	.	.	.	.	.	.	.	.	.	.	16ff\JJ
!	!	!	!	!	!	!	!	!	!LO:LB:g=original	!	!	!	!
=10	=10	=10	=10	=10	=10	=10	=10	=10	=10	=10	=10	=10	=10
!	!LO:TX:a:t=P:problem:mixed beam	!	!LO:TX:a:t=P:problem:mixed beam	!	!	!	!	!	!	!	!	!	!
.	8cc\L	.	8cc\L	.	4c\	e-	4c\	e-	4ee\	e-	.	.	4eee\
.	8c/	.	8c/	.	.	.	.	.	.	.	.	.	.
.	8g/	.	8g/	.	16e\LL	-ley-	16e\LL	-ley-	8ff\	-ley-	.	.	8fff\L
.	.	.	.	.	16d\	.	16d\	.	.	.	.	.	.
.	8G/J	.	8G/J	.	16c\	.	16c\	.	8dd\	-son	.	.	8ddd\J
.	.	.	.	.	16Bn\JJ	.	16Bn\JJ	.	.	.	.	.	.
!	!LO:TX:a:t=P:problem:mixed beam	!	!LO:TX:a:t=P:problem:mixed beam	!	!	!	!	!	!	!	!	!	!
*	*	*	*	*	*	*	*	*	*	*ij	*	*	*
.	8cc\L	.	8cc\L	.	4c\	.	4c\	.	4ee\	e-	.	.	4eee\
.	8c/	.	8c/	.	.	.	.	.	.	.	.	.	.
.	8g/	.	8g/	.	16e\LL	.	16e\LL	.	8ff\	-ley-	.	.	8fff\L
.	.	.	.	.	16d\	.	16d\	.	.	.	.	.	.
.	8G/J	.	8G/J	.	16c\	.	16c\	.	8dd\	-son	.	.	8ddd\J
*	*	*	*	*	*	*	*	*	*	*Xij	*	*	*
.	.	.	.	.	16Bn\JJ	-son	16Bn\JJ	-son	.	.	.	.	.
=11	=11	=11	=11	=11	=11	=11	=11	=11	=11	=11	=11	=11	=11
.	8c/L	.	8c/L	.	8.c\L	Chri-	8.c\L	Chri-	8.ee\	Chri-	.	.	4eee\
.	8d/	.	8d/	.	.	.	.	.	.	.	.	.	.
.	.	.	.	.	16e\Jk	-ste	16e\Jk	.	16gg\	-ste	.	.	.
.	8e/	.	8e/	.	16e\LL	e-	16e\LL	-ste	16gg\LL	e-	.	.	8fff\L
.	.	.	.	.	16d\JJ	.	16d\JJ	.	16ff\JJ	.	.	.	.
.	8c/J	.	8c/J	.	16d\LL	-ley-	16d\LL	e-	16ff\LL	-ley-	.	.	8eee\J
.	.	.	.	.	16c\JJ	.	16c\JJ	.	16ee\JJ	.	.	.	.
.	8g/L	.	8g/L	.	8c\	-son	8c\	-ley-	8ee\	-son	.	.	8eee\L
!	!	!	!	!	!	!	!LO:LB:g=original	!	!	!	!	!	!
.	8G/J	.	8G/J	.	8Bn\	.	8Bn\	-son	8dd\	.	.	.	8ddd\J
.	4r	.	4r	.	4r	.	4r	.	4r	.	.	.	4r
=12	=12	=12	=12	=12	=12	=12	=12	=12	=12	=12	=12	=12	=12
!	!	!LO:DY:b:t=for	!	!LO:DY:b:rj:t=for	!	!	!	!	!	!	!	!	!
8G\L	8bn/L	f	8dd\L	f	8Bn\	Ky-	8Bn\	Ky-	8.dd\	Ky-	2F/	2g\	2ddd\
8Bn\J	(32g/LL	.	(32g\LL	.	8d\	-ri-	8d\	-ri-	.	.	.	.	.
.	32a/	.	32a\	.	.	.	.	.	.	.	.	.	.
.	32b/	.	32bn\	.	.	.	.	.	16dd\	-ri-	.	.	.
.	32cc/JJJ)	.	32cc\JJJ)	.	.	.	.	.	.	.	.	.	.
8r	16b\LL	.	16dd\LL	.	8d\	-e	8d\	-e	8dd\	-e	.	.	.
.	16dd\	.	16ff\	.	.	.	.	.	.	.	.	.	.
8G\	16ff\	.	16aa\	.	8B\	e-	8B\	e-	8dd\	e-	.	.	.
.	16dd\JJ	.	16ff\JJ	.	.	.	.	.	.	.	.	.	.
!	!	!	!LO:LB:g=original	!	!	!	!	!	!	!	!	!	!
8c\L	16dd\LL	.	16ff\LL	.	4c\	-ley-	4c\	-ley-	4ee\	-ley-	4c/	4g\	2eee\
.	16cc\	.	16ee\	.	.	.	.	.	.	.	.	.	.
8G\	16aa\	.	16ccc\	.	.	.	.	.	.	.	.	.	.
.	16gg\JJ	.	16bbn\JJ	.	.	.	.	.	.	.	.	.	.
8E\	16ff\LL	.	16aa\LL	.	4C/	-son	4C/	-son	4ee\	-son	4r	4r	.
.	16ee\	.	16gg\	.	.	.	.	.	.	.	.	.	.
8C\J	16dd\	.	16ff\	.	.	.	.	.	.	.	.	.	.
.	16cc\JJ	.	16ee\JJ	.	.	.	.	.	.	.	.	.	.
!	!	!	!	!	!LO:LB:g=original	!	!	!	!	!	!	!	!LO:LB:g=original
=13	=13	=13	=13	=13	=13	=13	=13	=13	=13	=13	=13	=13	=13
!	!	!LO:DY:b:t=for	!	!	!	!	!	!	!	!	!	!	!
8G\L	8bn/L	f	8dd\L	.	8Bn\	Ky-	8Bn\	Ky-	8.dd\	Ky-	2F/	2g\	2ddd\
8Bn\J	(32g/LL	.	(32g\LL	.	8d\	-ri-	8d\	-ri-	.	.	.	.	.
.	32a/	.	32a\	.	.	.	.	.	.	.	.	.	.
.	32b/	.	32bn\	.	.	.	.	.	16dd\	-ri-	.	.	.
.	32cc/JJJ)	.	32cc\JJJ)	.	.	.	.	.	.	.	.	.	.
8r	16b\LL	.	16dd\LL	.	8d\	-e	8d\	-e	8dd\	-e	.	.	.
.	16dd\	.	16ff\	.	.	.	.	.	.	.	.	.	.
8G\	16ff\	.	16aa\	.	8B\	e-	8B\	e-	8dd\	e-	.	.	.
.	16dd\JJ	.	16ff\JJ	.	.	.	.	.	.	.	.	.	.
8c\L	16dd\LL	.	16ff\LL	.	4c\	-ley-	4c\	-ley-	4ee\	-ley-	4C/	4g\	2eee\
.	16cc\	.	16ee\	.	.	.	.	.	.	.	.	.	.
8G\	16aa\	.	16ccc\	.	.	.	.	.	.	.	.	.	.
.	16gg\JJ	.	16bb-\JJ	.	.	.	.	.	.	.	.	.	.
8E\	16ff\LL	.	16aa\LL	.	4C/	-son	4C/	-son	4ee\	-son	4r	4r	.
.	16ee\	.	16gg\	.	.	.	.	.	.	.	.	.	.
8C\J	16dd\	.	16ff\	.	.	.	.	.	.	.	.	.	.
.	16cc\JJ	.	16ee\JJ	.	.	.	.	.	.	.	.	.	.
!	!LO:LB:g=original	!	!	!	!	!	!	!	!	!	!	!	!
=14	=14	=14	=14	=14	=14	=14	=14	=14	=14	=14	=14	=14	=14
*	*2\right	*	*	*	*	*	*	*	*	*	*	*	*
*	*tremolo	*	*	*	*	*	*	*	*	*	*	*	*
!LO:TX:a:t=P:problem:mixed beam	!	!	!	!	!	!	!	!	!	!	!	!	!
8F\L	16ff 16a\LL	.	8aa\L	.	8F\	Ky-	8F/	Ky-	8.ff\	Ky-	2f\	2a\	1fff
.	16ff 16a\	.	.	.	.	.	.	.	.	.	.	.	.
8FF/	16ff 16a\	.	32aa\LL	.	8A\	-ri-	8A/	-ri-	.	.	.	.	.
.	.	.	32gg\	.	.	.	.	.	.	.	.	.	.
.	16ff 16a\	.	32ff\	.	.	.	.	.	16ff\	-ri-	.	.	.
.	.	.	32ee\JJJ	.	.	.	.	.	.	.	.	.	.
8AA/	16ff 16a\	.	16ff\LL	.	8c\	-e	8c\	-e	8ff\	-e	.	.	.
.	16ff 16a\	.	16cc\	.	.	.	.	.	.	.	.	.	.
8C/J	16ff 16a\	.	16a\	.	8e\	e-	8e\	e-	8ff\	e-	.	.	.
.	16ff 16a\JJ	.	16cc\JJ	.	.	.	.	.	.	.	.	.	.
!	!	!	!LO:TX:a:t=P:problem:mixed beam	!	!	!	!	!	!	!	!	!	!
16F\LL	16ff 16a\LL	.	16f/LL	.	4f\	-ley-	4f\	-ley-	4ff\	-ley-	4f\	4a\	.
16E\	16ff 16a\	.	16aa\	.	.	.	.	.	.	.	.	.	.
16F\	16ff 16a\	.	16aa\	.	.	.	.	.	.	.	.	.	.
16G\JJ	16ff 16a\	.	16aa\JJ	.	.	.	.	.	.	.	.	.	.
*	*	*	*tremolo	*	*	*	*	*	*	*	*	*	*
16A\LL	16ff 16a\	.	16aa\LL	.	4F\	-son	4F/	-son	4ff\	-son	4r	4r	.
16B-\	16ff 16a\	.	16aa\	.	.	.	.	.	.	.	.	.	.
16c\	16ff 16a\	.	16aa\	.	.	.	.	.	.	.	.	.	.
16F\JJ	16ff 16a\JJ	.	16aa\JJ	.	.	.	.	.	.	.	.	.	.
!LO:LB:g=original	!	!	!	!	!	!	!	!	!LO:LB:g=original	!	!	!	!
=15	=15	=15	=15	=15	=15	=15	=15	=15	=15	=15	=15	=15	=15
*	*	*	*	*	*	*ij	*	*ij	*	*	*	*	*
8G\L	16ee 16cc\LL	.	8gg\L	.	8C\	Ky-	8C/	Ky-	8.ee\	Ky-	2c/	2g\	2eee\
.	16ee 16cc\	.	.	.	.	.	.	.	.	.	.	.	.
8C\	16ee 16cc\	.	32gg\LL	.	8E\	-ri-	8E/	-ri-	.	.	.	.	.
.	.	.	32ff\	.	.	.	.	.	.	.	.	.	.
.	16ee 16cc\	.	32ee\	.	.	.	.	.	16ee\	-ri-	.	.	.
.	.	.	32dd\JJJ	.	.	.	.	.	.	.	.	.	.
8E\	16ee 16cc\	.	16ee\LL	.	8G\	-e	8G/	-e	8ee\	-e	.	.	.
.	16ee 16cc\	.	16cc\	.	.	.	.	.	.	.	.	.	.
8G\J	16ee 16cc\	.	16g\	.	8Bn\	e-	8Bn\	e-	8ee\	e-	.	.	.
.	16ee 16cc\JJ	.	16cc\JJ	.	.	.	.	.	.	.	.	.	.
!LO:TX:a:t=P:problem:mixed beam	!	!	!LO:TX:a:t=P:problem:mixed beam	!	!	!	!	!	!	!	!	!	!
16c\LL	16ee 16cc\LL	.	16e/LL	.	4c\	-ley-	4c\	-ley-	4ee\	-ley-	4c/	4g\	2ddd\
16C/	16ee 16cc\	.	16gg\	.	.	.	.	.	.	.	.	.	.
16E/	16ee 16cc\	.	16gg\	.	.	.	.	.	.	.	.	.	.
16G/JJ	16ee 16cc\	.	16gg\JJ	.	.	.	.	.	.	.	.	.	.
16c\LL	16ee 16cc\	.	16gg\LL	.	4C/	-son	4C/	-son	4ee\	-son	4r	4r	.
16G\	16ee 16cc\	.	16gg\	.	.	.	.	.	.	.	.	.	.
16E\	16ee 16cc\	.	16gg\	.	.	.	.	.	.	.	.	.	.
16C\JJ	16ee 16cc\JJ	.	16gg\JJ	.	.	.	.	.	.	.	.	.	.
!	!	!	!LO:LB:g=original	!	!	!	!	!	!	!	!	!	!
=16	=16	=16	=16	=16	=16	=16	=16	=16	=16	=16	=16	=16	=16
!LO:TX:a:t=P:problem:mixed beam	!	!	!	!	!	!	!	!	!	!	!	!	!
8G\L	16dd 16g\LL	.	8ff\L	.	8G\	Ky-	8G/	Ky-	8.dd\	Ky-	2F/	2f\	1ddd
.	16dd 16g\	.	.	.	.	.	.	.	.	.	.	.	.
8GG/	16dd 16g\	.	32ff\LL	.	8Bn\	-ri-	8Bn\	-ri-	.	.	.	.	.
.	.	.	32ee\	.	.	.	.	.	.	.	.	.	.
.	16dd 16g\	.	32dd\	.	.	.	.	.	16dd\	-ri-	.	.	.
.	.	.	32cc\JJJ	.	.	.	.	.	.	.	.	.	.
8BBn/	16dd 16g\	.	16dd\LL	.	8d\	-e	8d\	-e	8dd\	-e	.	.	.
.	16dd 16g\	.	16b-\	.	.	.	.	.	.	.	.	.	.
8D/J	16dd 16g\	.	16g\	.	8B\	e-	8B\	e-	8dd\	e-	.	.	.
.	16dd 16g\JJ	.	16b-\JJ	.	.	.	.	.	.	.	.	.	.
!LO:TX:a:t=P:problem:mixed beam	!	!	!LO:TX:a:t=P:problem:mixed beam	!	!	!	!	!	!	!	!	!	!
16G\LL	16dd 16g\LL	.	16d/LL	.	4G\	-ley-	4G/	-ley-	4dd\	-ley-	4F/	4f\	.
16GG/	16dd 16g\	.	16ff\	.	.	.	.	.	.	.	.	.	.
16BB/	16dd 16g\	.	16ff\	.	.	.	.	.	.	.	.	.	.
16D/JJ	16dd 16g\	.	16ff\JJ	.	.	.	.	.	.	.	.	.	.
16G/LL	16dd 16g\	.	16ff\LL	.	4GG/	-son	4GG/	-son	4dd\	-son	4r	4r	.
*	*	*	*	*	*	*Xij	*	*Xij	*	*	*	*	*
16D/	16dd 16g\	.	16ff\	.	.	.	.	.	.	.	.	.	.
16BB/	16dd 16g\	.	16ff\	.	.	.	.	.	.	.	.	.	.
16GG/JJ	16dd 16g\JJ	.	16ff\JJ	.	.	.	.	.	.	.	.	.	.
*	*Xtremolo	*	*Xtremolo	*	*	*	*	*	*	*	*	*	*
=17	=17	=17	=17	=17	=17	=17	=17	=17	=17	=17	=17	=17	=17
*	*Xtuplet	*	*Xtuplet	*	*	*	*	*	*	*	*	*	*
!	!LO:TUP:a:problem:klamra łukowa, kropka zamiast numeru	!	!LO:TUP:a:problem:klamra łukowa, kropka zamiast numeru	!	!	!	!	!	!	!	!LO:TX:a:t=1	!LO:TX:a:t=1.	!
8C/L	24cc\LL	.	24ee\LL	.	8c\	Ky-	8c\	Ky-	8ee\L	e-	1r	1r	8eee\L
.	24bn\	.	24dd\	.	.	.	.	.	.	.	.	.	.
.	24cc\JJ	.	24ee\JJ	.	.	.	.	.	.	.	.	.	.
8GG/	16dd\LL	.	16ff\LL	.	8G\	-ri-	8G/	-ri-	8ff\J	.	.	.	8fff\
.	16b\JJ	.	16dd\JJ	.	.	.	.	.	.	.	.	.	.
!	!LO:TUP:a:problem:klamra łukowa, kropka zamiast numeru	!	!LO:TUP:a:problem:klamra łukowa, kropka zamiast numeru	!	!	!	!	!	!	!	!	!	!
8C/	24cc\LL	.	24ee\LL	.	8c\	-e	8c\	-e	8ee\L	-ley-	.	.	8eee\
.	24b\	.	24dd\	.	.	.	.	.	.	.	.	.	.
.	24cc\JJ	.	24ee\JJ	.	.	.	.	.	.	.	.	.	.
8GG/J	16dd\LL	.	16ff\LL	.	8G\	e-	8G/	e-	8ff\J	.	.	.	8fff\J
.	16b\JJ	.	16dd\JJ	.	.	.	.	.	.	.	.	.	.
!LO:TX:a:t=P:problem:mixed beam	!	!	!	!LO:LB:g=original	!	!LO:LB:g=original	!	!	!	!	!	!	!
8C/L	16cc\LL	.	16ee\LL	.	8c\	-ley-	8c\	-ley-	4ee\	-son	.	.	8gg\L
.	16ee\	.	16gg\	.	.	.	.	.	.	.	.	.	.
8G\	16ee\	.	16gg\	.	8C/	-son	8C/	-son	.	.	.	.	8ee\J
.	16cc\JJ	.	16ee\JJ	.	.	.	.	.	.	.	.	.	.
!	!	!	!LO:TUP:a:problem:klamra łukowa, kropka zamiast numeru	!	!	!	!	!	!	!	!	!	!
8E\	24aa\LL	.	24ccc\LL	.	4r	.	4r	.	4r	.	.	.	4r
.	24gg\	.	24bbn\	.	.	.	.	.	.	.	.	.	.
.	24ff\JJ	.	24aa\JJ	.	.	.	.	.	.	.	.	.	.
!	!	!	!LO:TUP:a:problem:klamra łukowa, kropka zamiast numeru	!	!	!	!	!	!	!	!	!	!
8C\J	24ee\LL	.	24gg\LL	.	.	.	.	.	.	.	.	.	.
.	24dd\	.	24ff\	.	.	.	.	.	.	.	.	.	.
.	24cc\JJ	.	24ee\JJ	.	.	.	.	.	.	.	.	.	.
=18	=18	=18	=18	=18	=18	=18	=18	=18	=18	=18	=18	=18	=18
!LO:TX:a:t=P:problem:mixed beam	!	!	!	!	!	!	!	!	!	!	!	!	!
8F\L	8.ff\L	.	8.aa\L	.	4F\	e-	4F/	e-	8.aa\L	e-	4c/	4cc\	4ccc\
8A\	.	.	.	.	.	.	.	.	.	.	.	.	.
.	32ee\LL	.	32gg\LL	.	.	.	.	.	32gg\LL	.	.	.	.
.	32dd\JJJ	.	32ff\JJJ	.	.	.	.	.	32ff\JJJ	.	.	.	.
!	!	!	!	!	!LO:TX:a:t=P:problem:mixed beam	!	!	!	!	!	!	!	!
8G\	8cc\L	.	8ee\L	.	8G\L	-ley-	8G/L	-ley-	8ee\L	-ley-	4g\	4bX\	4bbn\
8GG/J	8g\J	.	8dd\J	.	8GG/J	.	8GG/J	.	8dd\J	.	.	.	.
8C/L	8e/L	.	8cc\L	.	4C/	-son	4C/	-son	8cc\	-son	8c/L	8cc\L	8ccc\L
8GG/J	8g/J	.	8g\J	.	.	.	.	.	8r	.	8c/	8cc\J	8gg\J
4CC/	4c/	.	4c/	.	4r	.	4r	.	4r	.	8c/J	4cc\	4ee\
.	.	.	.	.	.	.	.	.	.	.	8r	.	.
=19	=19	=19	=19	=19	=19	=19	=19	=19	=19	=19	=19	=19	=19
8.C/L	8.e/L	.	8.ccL 8.e\	.	8.C/	Ky-	8.C/	Ky-	8.cc\	Ky-	8.C/L	8.c/L	8.ccc\L
16C/Jk	16e/Jk	.	16ccJk 16e\	.	16C/	-ri-	16D/	-ri-	16cc\	-ri-	16C/Jk	16c/Jk	16ccc\Jk
8E\L	16e/LL	.	16cc\LL	.	8E\	-e	8E/	-e	8cc\	-e	8C/L	8c/L	8ccc\L
.	16c/	.	16g\	.	.	.	.	.	.	.	.	.	.
8G\J	16g/	.	16ee\	.	8G\	e-	8G/	e-	8cc\	e-	8C/J	8c/J	8ccc\J
.	16e/JJ	.	16cc\JJ	.	.	.	.	.	.	.	.	.	.
!	!	!	!	!	!	!	!	!	!	!	!	!LO:TX:a:t=P:problem:mixed beam	!
8GG/L	32g/LLL	.	(32ee\LLL	.	8c\	-ley-	8c\	-ley-	8dd\	-ley-	8C/L	8g\L	8ddd\L
.	32f/	.	32dd\	.	.	.	.	.	.	.	.	.	.
.	32e/	.	32cc\	.	.	.	.	.	.	.	.	.	.
.	32f/JJ	.	32dd\JJ)	.	.	.	.	.	.	.	.	.	.
8C/J	8e/J	.	8cc\J	.	8C/	-son	8C/	-son	8cc\	-son	8C/J	8c/J	8ccc\J
4r	8r	.	8r	.	4r	.	4r	.	4r	.	4r	4r	4r
!	!	!	!LO:LB:g=original	!	!	!	!	!	!	!	!	!	!
.	16gg\LL	.	16ccc\LL	.	.	.	.	.	.	.	.	.	.
.	16ee\JJ	.	16gg\JJ	.	.	.	.	.	.	.	.	.	.
!LO:LB:g=original	!LO:LB:g=original	!	!	!	!	!	!	!	!LO:LB:g=original	!	!	!	!
=20	=20	=20	=20	=20	=20	=20	=20	=20	=20	=20	=20	=20	=20
4r	16ee\LL	.	16gg\LL	.	4r	.	4r	.	4r	.	4r	4r	4r
.	16cc\	.	16ee\	.	.	.	.	.	.	.	.	.	.
.	16ff\	.	16aa\	.	.	.	.	.	.	.	.	.	.
.	16dd\JJ	.	16ff\JJ	.	.	.	.	.	.	.	.	.	.
8r	16cc\LL	.	16ee\LL	.	8r	.	8r	.	8r	.	8r	8r	8r
.	16bn\	.	16dd\	.	.	.	.	.	.	.	.	.	.
8C/L	16dd\	.	16ff\	.	8c\	e-	8c\	e-	8dd\	e-	8g\L	8cc\L	8ccc\L
.	16b\JJ	.	16dd\JJ	.	.	.	.	.	.	.	.	.	.
8GG/	8d/L	.	8bn\L	.	8G\	-ley-	8G/	-ley-	8bn\	-ley-	8g\	8bX\	8bbn\
8C/J	8e/J	.	8cc\J	.	8c\	-son	8c\	-son	8cc\	-son	8g\J	8cc\J	8ccc\J
4r	8r	.	8r	.	4r	.	4r	.	4r	.	4r	4r	4r
.	16gg\LL	.	16ccc\LL	.	.	.	.	.	.	.	.	.	.
.	16ee\JJ	.	16gg\JJ	.	.	.	.	.	.	.	.	.	.
!	!	!	!	!	!	!	!	!	!	!	!LO:LB:g=original	!LO:LB:g=original	!
=21	=21	=21	=21	=21	=21	=21	=21	=21	=21	=21	=21	=21	=21
4r	16ee\LL	.	16gg\LL	.	4r	.	4r	.	4r	.	4r	4r	4r
.	16cc\	.	16ee\	.	.	.	.	.	.	.	.	.	.
.	16ff\	.	16aa\	.	.	.	.	.	.	.	.	.	.
.	16dd\JJ	.	16ff\JJ	.	.	.	.	.	.	.	.	.	.
8r	16cc\LL	.	16ee\LL	.	8r	.	8r	.	8r	.	8r	8r	8r
.	16bn\	.	16dd\	.	.	.	.	.	.	.	.	.	.
*	*	*	*	*	*	*ij	*	*ij	*	*	*	*	*
8C/L	16dd\	.	16ff\	.	8c\	e-	8c\	e-	8dd\	e-	8g\L	8cc\L	8ccc\L
.	16b\JJ	.	16dd\JJ	.	.	.	.	.	.	.	.	.	.
8GG/	8d/L	.	8bn\L	.	8G\	-ley-	8G/	-ley-	8bn\	-ley-	8g\	8bX\	8bbn\
8C/J	8e/J	.	8cc\J	.	8c\	-son	8c\	-son	8cc\	-son	8g\J	8cc\J	8ccc\J
*	*	*	*	*	*	*Xij	*	*Xij	*	*	*	*	*
4r	4r	.	4r	.	4r	.	4r	.	4r	.	4r	4r	4r
!	!	!	!	!	!	!	!	!	!	!	!	!	!LO:LB:g=original
=22	=22	=22	=22	=22	=22	=22	=22	=22	=22	=22	=22	=22	=22
*	*^	*	*	*	*	*	*	*	*	*	*	*	*
8.D\L	8.a/L	8.f\L	.	8.ddL 8.f/	.	8.D\	Ky-	8.D/	Ky-	8.dd\	Ky-	8.A/L	8.a\L	8.ddd\L
16D\Jk	16a/Jk	16f\Jk	.	16ddJk 16f/	.	16D\	-ri-	16D/	-ri-	16dd\	-ri-	16A/Jk	16a\Jk	16ddd\Jk
!	!	!	!	!	!	!LO:LB:g=original	!	!	!	!	!	!	!	!
8F\L	16a/LL	4ryy	.	16dd\LL	.	8F\	-e	8F/	-e	8dd\	-e	8A/L	8a\L	8ddd\L
.	16f/	.	.	16a\	.	.	.	.	.	.	.	.	.	.
8A\J	16dd/	.	.	16ff\	.	8A\	e-	8A/	e-	8dd\	e-	8A/J	8a\J	8ddd\J
.	16a/JJ	.	.	16dd\JJ	.	.	.	.	.	.	.	.	.	.
!LO:TX:a:t=P:problem:mixed beam	!	!	!	!	!	!	!	!	!	!	!	!	!	!
.	.	.	.	8qff/	.	.	.	.	.	.	.	.	.	.
8d\L	8b-X/L	2ryy	.	8ee\L	.	8d\	-ley-	8d\	-ley-	8ee\	-ley-	8A/L	8a\L	8ccc#X\L
8D/J	8a/J	.	.	8dd\J	.	8D/	-son	8D/	-son	8dd\	-son	8A/J	8a\J	8ddd\J
4r	8r	.	.	8r	.	4r	.	4r	.	4r	.	4r	4r	4r
.	16aa\LL	.	.	16ddd\LL	.	.	.	.	.	.	.	.	.	.
.	16ff\JJ	.	.	16aa\JJ	.	.	.	.	.	.	.	.	.	.
*	*v	*v	*	*	*	*	*	*	*	*	*	*	*	*
=23	=23	=23	=23	=23	=23	=23	=23	=23	=23	=23	=23	=23	=23
4r	16ff\LL	.	16aa\LL	.	4r	.	4r	.	4r	.	4r	4r	4r
.	16dd\	.	16ff\	.	.	.	.	.	.	.	.	.	.
.	16gg\	.	16bb-\	.	.	.	.	.	.	.	.	.	.
.	16ee\JJ	.	16gg\JJ	.	.	.	.	.	.	.	.	.	.
8r	16dd\LL	.	16ff\LL	.	8r	.	8r	.	8r	.	8r	8r	8r
.	16cc#X\	.	16ee\	.	.	.	.	.	.	.	.	.	.
8D/L	16ee\	.	16aa\	.	8D\	e-	8D/	e-	8dd\	e-	8A/L	8a\L	8ddd\L
.	16a\JJ	.	16cc#X\JJ	.	.	.	.	.	.	.	.	.	.
8AA/	8g/L	.	8cc#\L	.	8AA/	-ley-	8AA/	-ley-	8cc#X\	-ley-	8A/	8a\	8ccc\
8D/J	8f/J	.	8dd\J	.	8D\	-son	8D/	-son	8dd\	-son	8A/J	8a\J	8ddd\J
4r	8r	.	8r	.	4r	.	4r	.	4r	.	4r	4r	4r
.	16aa\LL	.	16ddd\LL	.	.	.	.	.	.	.	.	.	.
.	16ff\JJ	.	16aa\JJ	.	.	.	.	.	.	.	.	.	.
!	!	!	!LO:LB:g=original	!	!	!	!LO:LB:g=original	!	!	!	!	!	!
=24	=24	=24	=24	=24	=24	=24	=24	=24	=24	=24	=24	=24	=24
4r	16ff\LL	.	16aa\LL	.	4r	.	4r	.	4r	.	4r	4r	4r
.	16dd\	.	16ff\	.	.	.	.	.	.	.	.	.	.
.	16gg\	.	16bb-\	.	.	.	.	.	.	.	.	.	.
.	16ee\JJ	.	16gg\JJ	.	.	.	.	.	.	.	.	.	.
8r	16dd\LL	.	16ff\LL	.	8r	.	8r	.	8r	.	8r	8r	8r
.	16cc#X\	.	16ee\	.	.	.	.	.	.	.	.	.	.
*	*	*	*	*	*	*ij	*	*ij	*	*	*	*	*
8D/L	16ff\	.	16aa\	.	8D\	e-	8D/	e-	8dd\	e-	8A/L	8a\L	8ddd\L
.	16dd\JJ	.	16cc#X\JJ	.	.	.	.	.	.	.	.	.	.
!	!LO:LB:g=original	!	!	!	!	!	!	!	!	!	!	!	!
8AA/	8e/L	.	8cc#\L	.	8AA/	-ley-	8AA/	-ley-	8cc#X\	-ley-	8A/	8a\	8ccc\
8D/J	8f/J	.	8dd\J	.	8D\	-son	8D/	-son	8dd\	-son	8A/J	8a\J	8ddd\J
*	*	*	*	*	*	*Xij	*	*Xij	*	*	*	*	*
4r	4r	.	4r	.	4r	.	4r	.	4r	.	4r	4r	4r
!	!	!	!	!	!	!	!	!	!LO:LB:g=original	!	!	!	!
=25	=25	=25	=25	=25	=25	=25	=25	=25	=25	=25	=25	=25	=25
*	*tremolo	*	*	*	*	*	*	*	*	*	*	*	*
8C#X/L	16a 16e/LL	.	8cc#X\L	.	8.A\	Ky-	8.A/	Ky-	8.cc#X\	Ky-	2A/	1a	2eee\
.	16a 16e/	.	.	.	.	.	.	.	.	.	.	.	.
8E/	16a 16e/	.	(32ee\LL	.	.	.	.	.	.	.	.	.	.
.	.	.	32dd\	.	.	.	.	.	.	.	.	.	.
.	16a 16e/	.	32cc#\	.	16A\	-ri-	16A/	-ri-	16cc#\	-ri-	.	.	.
.	.	.	32bn\JJJ)	.	.	.	.	.	.	.	.	.	.
8C#/	16a 16e/	.	16.a\LL	.	8G\	-e	8G/	-e	8cc#\	-e	.	.	.
.	16a 16e/	.	.	.	.	.	.	.	.	.	.	.	.
.	.	.	32cc#X\K	.	.	.	.	.	.	.	.	.	.
8AA/J	16a 16e/	.	16.aa\	.	8G\	e-	8G/	e-	8cc#\	e-	.	.	.
.	16a 16e/JJ	.	.	.	.	.	.	.	.	.	.	.	.
.	.	.	32cc#\JJk	.	.	.	.	.	.	.	.	.	.
!LO:TX:a:t=P:problem:mixed beam	!	!	!	!	!	!	!	!	!	!	!	!	!
8D\L	16a 16f/LL	.	(16.dd\LL	.	8F\L	-ley-	8F/L	-ley-	4dd\	-ley-	2A/	.	2fff\
.	16a 16f/	.	.	.	.	.	.	.	.	.	.	.	.
.	.	.	32a\K)	.	.	.	.	.	.	.	.	.	.
8A\	16a 16f/	.	(16.ff\	.	8D\J	.	8D/J	.	.	.	.	.	.
.	16a 16f/	.	.	.	.	.	.	.	.	.	.	.	.
.	.	.	32dd\JJk)	.	.	.	.	.	.	.	.	.	.
8d\	16a 16f/	.	8aa\L	.	4d\	-son	4d\	-son	4dd\	-son	.	.	.
.	16a 16f/	.	.	.	.	.	.	.	.	.	.	.	.
8D/J	16a 16f/	.	8dd\J	.	.	.	.	.	.	.	.	.	.
.	16a 16f/JJ	.	.	.	.	.	.	.	.	.	.	.	.
!LO:LB:g=original	!	!	!	!	!	!	!	!	!	!	!	!	!
=26	=26	=26	=26	=26	=26	=26	=26	=26	=26	=26	=26	=26	=26
*	*	*	*	*	*	*ij	*	*ij	*	*ij	*	*	*
8C#X/L	16a 16e/LL	.	8cc#X\L	.	8.A\	Ky-	8.A/	Ky-	8.cc#X\	Ky-	1A	1a	2eee\
.	16a 16e/	.	.	.	.	.	.	.	.	.	.	.	.
8E/	16a 16e/	.	(32ee\LL	.	.	.	.	.	.	.	.	.	.
.	.	.	32dd\	.	.	.	.	.	.	.	.	.	.
.	16a 16e/	.	32cc#\	.	16A\	-ri-	16A/	-ri-	16cc#\	-ri-	.	.	.
.	.	.	32bn\JJJ)	.	.	.	.	.	.	.	.	.	.
8C#/	16a 16e/	.	16.a\LL	.	8G\	-e	8G/	-e	8cc#\	-e	.	.	.
.	16a 16e/	.	.	.	.	.	.	.	.	.	.	.	.
.	.	.	32ee\K	.	.	.	.	.	.	.	.	.	.
8AA/J	16a 16e/	.	16.aa\	.	8G\	e-	8G/	e-	8cc#\	e-	.	.	.
.	16a 16e/JJ	.	.	.	.	.	.	.	.	.	.	.	.
.	.	.	32cc#X\JJk	.	.	.	.	.	.	.	.	.	.
8D/L	16a 16f/LL	.	16.dd\LL	.	8F\L	-ley-	8F/L	-ley-	4dd\	-ley-	.	.	2fff\
.	16a 16f/	.	.	.	.	.	.	.	.	.	.	.	.
.	.	.	32a\K	.	.	.	.	.	.	.	.	.	.
8AA/	16a 16f/	.	16.ff\	.	8D\J	.	8D/J	.	.	.	.	.	.
.	16a 16f/	.	.	.	.	.	.	.	.	.	.	.	.
.	.	.	32dd\JJk	.	.	.	.	.	.	.	.	.	.
8DD/	16a 16f/	.	8aa\L	.	4d\	-son	4d\	-son	4dd\	-son	.	.	.
.	16a 16f/	.	.	.	.	.	.	.	.	.	.	.	.
*	*	*	*	*	*	*	*	*	*	*Xij	*	*	*
8D/J	16a 16f/	.	8dd\J	.	.	.	.	.	.	.	.	.	.
.	16a 16f/JJ	.	.	.	.	.	.	.	.	.	.	.	.
!	!	!	!	!	!LO:LB:g=original	!	!	!	!	!	!	!	!
=27	=27	=27	=27	=27	=27	=27	=27	=27	=27	=27	=27	=27	=27
*	*^	*	*	*	*	*	*	*	*	*	*	*	*
8GG/L	16d/LL	16G/LL	.	8bn\L	.	8.G\	Ky-	8.G/	Ky-	8.bn\	Ky-	1g	2bX\	2ddd\
.	16d/	16G/	.	.	.	.	.	.	.	.	.	.	.	.
8D/	16d/	16G/	.	(32dd\LL	.	.	.	.	.	.	.	.	.	.
.	.	.	.	32cc\	.	.	.	.	.	.	.	.	.	.
.	16d/	16G/	.	32b\	.	16G\	-ri-	16G/	-ri-	16b\	-ri-	.	.	.
.	.	.	.	32a\JJJ)	.	.	.	.	.	.	.	.	.	.
8BBn/	16d/	16G/	.	16.g\LL	.	8F\	-e	8F/	-e	8b\	-e	.	.	.
.	16d/	16G/	.	.	.	.	.	.	.	.	.	.	.	.
.	.	.	.	32dd\K	.	.	.	.	.	.	.	.	.	.
8GG/J	16d/	16G/	.	16.ff\	.	8F\	e-	8F/	e-	8b\	e-	.	.	.
.	16d/JJ	16G/	.	.	.	.	.	.	.	.	.	.	.	.
.	.	.	.	32dd\JJk	.	.	.	.	.	.	.	.	.	.
!	!	!	!	!LO:LB:g=original	!	!	!	!	!	!	!	!	!	!
8C\L	16e/LL	16G/	.	16.cc\LL	.	8E\L	-ley-	8E/L	-ley-	4cc\	-ley-	.	2cc\	2eee\
.	16e/	16G/	.	.	.	.	.	.	.	.	.	.	.	.
.	.	.	.	32g\K	.	.	.	.	.	.	.	.	.	.
8E\	16e/	16G/	.	16.ee\	.	8C\J	.	8C/J	.	.	.	.	.	.
.	16e/	16G/	.	.	.	.	.	.	.	.	.	.	.	.
.	.	.	.	32cc\JJk	.	.	.	.	.	.	.	.	.	.
8G\	16e/	16G/	.	8gg\L	.	4c\	-son	4c\	-son	4cc\	-son	.	.	.
.	16e/	16G/	.	.	.	.	.	.	.	.	.	.	.	.
*	*	*	*	*	*	*	*Xij	*	*Xij	*	*	*	*	*
8c\J	16e/	16G/	.	8cc\J	.	.	.	.	.	.	.	.	.	.
.	16e/JJ	16G/JJ	.	.	.	.	.	.	.	.	.	.	.	.
*	*v	*v	*	*	*	*	*	*	*	*	*	*	*	*
=28	=28	=28	=28	=28	=28	=28	=28	=28	=28	=28	=28	=28	=28
*	*	*	*	*	*	*	*	*	*	*ij	*	*	*
8Bn\L	16bn 16d/LL	.	8bn\L	.	8.G\	Ky-	8.G/	Ky-	8.bn\	Ky-	1g	2bX\	2ddd\
.	16bn 16d/	.	.	.	.	.	.	.	.	.	.	.	.
8d\	16bn 16d/	.	(32dd\LL	.	.	.	.	.	.	.	.	.	.
.	.	.	32cc\	.	.	.	.	.	.	.	.	.	.
.	16bn 16d/	.	32b\	.	16G\	-ri-	16G/	-ri-	16b\	-ri-	.	.	.
.	.	.	32a\JJJ)	.	.	.	.	.	.	.	.	.	.
8B\	16bn 16d/	.	16.g\LL	.	8F\	-e	8F/	-e	8b\	-e	.	.	.
.	16bn 16d/	.	.	.	.	.	.	.	.	.	.	.	.
.	.	.	32dd\K	.	.	.	.	.	.	.	.	.	.
8G\J	16bn 16d/	.	16.ff\	.	8F\	e-	8F/	e-	8b\	e-	.	.	.
.	16bn 16d/JJ	.	.	.	.	.	.	.	.	.	.	.	.
.	.	.	32dd\JJk	.	.	.	.	.	.	.	.	.	.
8c\L	16cc 16e/LL	.	16.cc\LL	.	8E\L	-ley-	8E/L	-ley-	4cc\	-ley-	.	2cc\	2eee\
.	16cc 16e/	.	.	.	.	.	.	.	.	.	.	.	.
.	.	.	32g\K	.	.	.	.	.	.	.	.	.	.
8G\	16cc 16e/	.	16.ee\	.	8C\J	.	8C/J	.	.	.	.	.	.
.	16cc 16e/	.	.	.	.	.	.	.	.	.	.	.	.
.	.	.	32cc\JJk	.	.	.	.	.	.	.	.	.	.
8E\	16cc 16e/	.	8.gg\L	.	4c\	-son	4c\	-son	4cc\	-son	.	.	.
.	16cc 16e/	.	.	.	.	.	.	.	.	.	.	.	.
*	*	*	*	*	*	*	*	*	*	*Xij	*	*	*
8C\J	16cc 16e/	.	.	.	.	.	.	.	.	.	.	.	.
.	16cc 16e/JJ	.	16cc\Jk	.	.	.	.	.	.	.	.	.	.
=29	=29	=29	=29	=29	=29	=29	=29	=29	=29	=29	=29	=29	=29
*	*	*	*	*	*	*ij	*	*ij	*	*	*	*	*
8F\L	16a 16f/LL	.	8a\L	.	8.F\	Ky-	8.F/	Ky-	8.a\	Ky-	2f\	2a\	2ccc\
.	16a 16f/	.	.	.	.	.	.	.	.	.	.	.	.
8A\	16a 16f/	.	(32cc\LL	.	.	.	.	.	.	.	.	.	.
.	.	.	32b-X\	.	.	.	.	.	.	.	.	.	.
.	16a 16f/	.	32a\	.	16F\	-ri-	16F/	-ri-	16a\	-ri-	.	.	.
.	.	.	32g\JJJ)	.	.	.	.	.	.	.	.	.	.
8c\	16a 16f/	.	16.f\LL	.	8A\	-e	8A/	-e	8a\	-e	.	.	.
.	16a 16f/	.	.	.	.	.	.	.	.	.	.	.	.
.	.	.	32cc\K	.	.	.	.	.	.	.	.	.	.
8F\J	16a 16f/	.	16.ee-X\	.	8A\	e-	8A/	e-	8a\	e-	.	.	.
.	16a 16f/JJ	.	.	.	.	.	.	.	.	.	.	.	.
.	.	.	32cc\JJk	.	.	.	.	.	.	.	.	.	.
8B-\L	16b-X 16d/LL	.	16.dd\LL	.	4B-\	-ley-	4B-\	-ley-	4b-X\	-ley-	2r	2r	2ddd\
.	16b-X 16d/	.	.	.	.	.	.	.	.	.	.	.	.
.	.	.	32b-\K	.	.	.	.	.	.	.	.	.	.
8F\	16b-X 16d/	.	16.ff\	.	.	.	.	.	.	.	.	.	.
.	16b-X 16d/	.	.	.	.	.	.	.	.	.	.	.	.
.	.	.	32dd\JJk	.	.	.	.	.	.	.	.	.	.
8D\	16b-X 16d/	.	8.bb-\L	.	4BB-/	-son	4BB-/	-son	4b-\	-son	.	.	.
.	16b-X 16d/	.	.	.	.	.	.	.	.	.	.	.	.
8BB-\J	16b-X 16d/	.	.	.	.	.	.	.	.	.	.	.	.
.	16b-X 16d/JJ	.	16ff\Jk	.	.	.	.	.	.	.	.	.	.
!	!	!	!	!	!	!	!	!	!LO:LB:g=original	!	!	!	!
=30	=30	=30	=30	=30	=30	=30	=30	=30	=30	=30	=30	=30	=30
*	*	*	*	*	*	*	*	*	*	*ij	*	*	*
8F\L	16a 16f/LL	.	8a\L	.	8.F\	Ky-	8.F/	Ky-	8.a\	Ky-	2f\	2a\	2ccc\
.	16a 16f/	.	.	.	.	.	.	.	.	.	.	.	.
8A\	16a 16f/	.	(32cc\LL	.	.	.	.	.	.	.	.	.	.
.	.	.	32b-\	.	.	.	.	.	.	.	.	.	.
.	16a 16f/	.	32a\	.	16F\	-ri-	16F/	-ri-	16a\	-ri-	.	.	.
.	.	.	32g\JJJ)	.	.	.	.	.	.	.	.	.	.
8c\	16a 16f/	.	16.f\LL	.	8A\	-e	8A/	-e	8a\	-e	.	.	.
.	16a 16f/	.	.	.	.	.	.	.	.	.	.	.	.
.	.	.	32cc\K	.	.	.	.	.	.	.	.	.	.
8F\J	16a 16f/	.	16.ee-X\	.	8B-\	e-	8A/	e-	8a\	e-	.	.	.
.	16a 16f/JJ	.	.	.	.	.	.	.	.	.	.	.	.
.	.	.	32cc\JJk	.	.	.	.	.	.	.	.	.	.
8B-\L	16b- 16f/LL	.	16.dd\LL	.	4B-\	-ley-	4B-\	-ley-	4b-\	-ley-	2r	2r	2ddd\
.	16b- 16f/	.	.	.	.	.	.	.	.	.	.	.	.
.	.	.	32b-\K	.	.	.	.	.	.	.	.	.	.
8F\	16b- 16f/	.	16.ff\	.	.	.	.	.	.	.	.	.	.
.	16b- 16f/	.	.	.	.	.	.	.	.	.	.	.	.
.	.	.	32dd\JJk	.	.	.	.	.	.	.	.	.	.
8D\	16b- 16f/	.	8bb-\L	.	4BB-/	-son	4BB-/	-son	4b-\	-son	.	.	.
.	16b- 16f/	.	.	.	.	.	.	.	.	.	.	.	.
*	*Xtremolo	*	*	*	*	*Xij	*	*Xij	*	*Xij	*	*	*
8BB-\J	16b- 16f/	.	8ff\J	.	.	.	.	.	.	.	.	.	.
.	16b- 16f/JJ	.	.	.	.	.	.	.	.	.	.	.	.
!	!	!	!LO:LB:g=original	!	!	!	!LO:LB:g=original	!	!	!	!LO:LB:g=original	!	!
=31	=31	=31	=31	=31	=31	=31	=31	=31	=31	=31	=31	=31	=31
!	!	!	!	!	!	!	!	!	!	!	!LO:TX:a:t=9.	!	!
8E\L	8ee-X'\L	.	8ggL 8b- 8e-/	.	8e-X\	Ky-	8e-X\	Ky-	8gg\	Ky-	00r	00r	8eee-X\L
8D\	8dd'\	.	8ff 8b- 8d/	.	8d\	-ri-	8d\	-ri-	8ff\	-ri-	.	.	8fff\
8c\	8cc'\	.	8ee-X 8f 8A/	.	8c\	-e	8c\	-e-	8ee-X\	-e	.	.	8eee-\
8B-\J	8b-'\J	.	8ddJ 8f 8B-/	.	8B-\	e-	8B-\	-e-	8dd\	e-	.	.	8bb-\J
!LO:TX:a:t=P:problem:mixed beam	!	!	!	!LO:LB:g=original	!	!	!	!	!	!	!	!	!LO:LB:g=original
8F\L	8b-\L	.	8ddL 8f 8B-/	.	8f\	-ley-	8f\	-ley-	8dd\	-ley-	.	.	8ddd\L
8FF/J	8a\J	.	8ccJ 8f 8A/	.	8F\	-son	8F/	-son	8cc\	-son	.	.	8ccc\J
4r	4r	.	4r	.	4r	.	4r	.	4r	.	.	.	4r
=32	=32	=32	=32	=32	=32	=32	=32	=32	=32	=32	=32	=32	=32
!LO:TX:a:t=4.	!	!LO:DY:b:rj:t=p&colon;	!	!LO:DY:b:rj:t=p.	!	!	!	!	!	!	!	!	!LO:TX:a:i:t=Solo
00r	4B-/	p	4B-/	p	4d\	Chri-	4d\	Chri-	4ff\	Chri-	.	.	4fff\
.	8d/L	.	8d/L	.	8d\	-ste	8d\	-ste	8ff\	-ste	.	.	8fff\L
.	8f/J	.	8f/J	.	8c\	e-	8c\	e-	8ee-X\	e-	.	.	8eee-X\J
.	8b-/L	.	8b-/L	.	16c\LL	-ley-	16c\LL	-ley-	16ee-\LL	-ley-	.	.	16eee-\LL
.	.	.	.	.	16B-\JJ	.	16B-\JJ	.	16dd\JJ	.	.	.	16ddd\
.	8f/	.	8f/	.	8B-\	-son	8B-\	-son	8dd\	-son	.	.	16ddd\
.	.	.	.	.	.	.	.	.	.	.	.	.	16eee-\JJ
.	8d/	.	8d/	.	4r	.	4r	.	4r	.	.	.	16fff\LL
.	.	.	.	.	.	.	.	.	.	.	.	.	16eee-\
.	8B-/J	.	8B-/J	.	.	.	.	.	.	.	.	.	16eee-\
.	.	.	.	.	.	.	.	.	.	.	.	.	16ddd\JJ
=33	=33	=33	=33	=33	=33	=33	=33	=33	=33	=33	=33	=33	=33
*	*	*	*	*	*	*	*	*	*	*ij	*	*	*
.	4f/	.	4f/	.	4c\	Chri-	4c\	Chri-	4ee-X\	Chri-	.	.	4eee-X\
.	8a/L	.	8a/L	.	8c\	-ste	8c\	-ste	8ee-\	-ste	.	.	8eee-\L
.	8cc/J	.	8cc/J	.	8B-\	e-	8B-\	e-	8dd\	e-	.	.	8ddd\J
.	8ff\L	.	8ff\L	.	16B-\LL	-ley-	16B-\LL	-ley-	16dd\LL	-ley-	.	.	16ddd\LL
.	.	.	.	.	16A\JJ	.	16A\JJ	.	16cc\JJ	.	.	.	16ccc\
.	8cc\	.	8cc\	.	8A\	-son	8A\	-son	8cc\	-son	.	.	16ccc\
*	*	*	*	*	*	*	*	*	*	*Xij	*	*	*
.	.	.	.	.	.	.	.	.	.	.	.	.	16ddd\JJ
.	8a\	.	8a\	.	4r	.	4r	.	4r	.	.	.	16fff\LL
.	.	.	.	.	.	.	.	.	.	.	.	.	16eee-\
.	8f\J	.	8f\J	.	.	.	.	.	.	.	.	.	16ddd\
.	.	.	.	.	.	.	.	.	.	.	.	.	16ccc\JJ
!	!LO:LB:g=original	!	!	!	!	!	!	!	!	!	!	!	!
=34	=34	=34	=34	=34	=34	=34	=34	=34	=34	=34	=34	=34	=34
!	!LO:TX:a:t=P:problem:mixed beam	!	!LO:TX:a:t=P:problem:mixed beam	!	!	!	!	!	!	!	!	!	!
.	8b-\L	.	8b-\L	.	4B-\	e-	4B-\	e-	4dd\	Chri-	.	.	4ddd\
.	8B-/	.	8B-/	.	.	.	.	.	.	.	.	.	.
.	8f/	.	8f/	.	16d\LL	-ley-	16d\LL	-ley-	16ff\LL	-ste	.	.	16fff\LL
.	.	.	.	.	16c\	.	16c\	.	16ee-X\JJ	e-	.	.	16eee-X\
.	8f/J	.	8b-/J	.	16B-\	.	16B-\	.	16dd\LL	-ley-	.	.	16ddd\
.	.	.	.	.	16A\JJ	.	16A\JJ	.	16cc\JJ	.	.	.	16ccc\JJ
!	!LO:TX:a:t=P:problem:mixed beam	!	!LO:TX:a:t=P:problem:mixed beam	!	!	!	!	!	!	!	!	!	!
.	8b-\L	.	8b-\L	.	4B-\	.	4B-\	.	4dd\	-son	.	.	4ddd\
.	8B-/	.	8B-/	.	.	.	.	.	.	.	.	.	.
.	8f/	.	8f/	.	16d\LL	.	16d\LL	.	16ff\LL	e-	.	.	16fff\LL
.	.	.	.	.	16c\	.	16c\	.	16ee-\JJ	.	.	.	16eee-\
.	8f/J	.	8b-/J	.	16B-\	.	16B-\	.	16dd\LL	.	.	.	16ddd\
.	.	.	.	.	16A\JJ	-son	16A\JJ	-son	16cc\JJ	.	.	.	16ccc\JJ
!	!	!	!	!	!	!	!	!	!LO:LB:g=original	!	!	!	!
=35	=35	=35	=35	=35	=35	=35	=35	=35	=35	=35	=35	=35	=35
.	8B-/L	.	8B-/L	.	8.B-\	e-	8.B-\	e-	8.dd\	Chri-	00r	00r	8.ddd\L
.	8c/	.	8c/	.	.	.	.	.	.	.	.	.	.
.	.	.	.	.	16d\	.	16d\	.	16ff\	-ste	.	.	16fff\Jk
.	8d/	.	8d/	.	16d\LL	.	16d\LL	.	16ff\LL	e-	.	.	16fff\LL
.	.	.	.	.	16c\JJ	.	16c\JJ	.	16ee-X\JJ	.	.	.	16eee\
.	8B-/J	.	8B-/J	.	16c\LL	.	16c\LL	.	16dd\LL	-ley-	.	.	16eee\
.	.	.	.	.	16B-\JJ	.	16B-\JJ	.	16cc\JJ	.	.	.	16ddd\JJ
!	!	!	!	!	!LO:LB:g=original	!	!	!	!	!	!	!	!
.	8f/L	.	8f/L	.	8B-\	-ley-	8B-\	-ley-	8dd\	.	.	.	8ddd\L
.	8f/J	.	8f/J	.	8A\	-son	8A/	-son	8cc\	-son	.	.	8ccc\J
.	4r	.	4r	.	4r	.	4r	.	4r	.	.	.	4r
!LO:LB:g=original	!	!	!	!	!	!	!	!	!	!	!	!	!LO:LB:g=original
=36	=36	=36	=36	=36	=36	=36	=36	=36	=36	=36	=36	=36	=36
*	*	*	*^	*	*	*	*	*	*	*	*	*	*
!	!	!LO:DY:b:rj:t=for	!	!	!LO:DY:b:rj:t=for	!	!	!	!	!	!	!	!	!
8F\L	8cc\L	f	8f\L	8ee-X/	f	8F\	Ky-	8F/	Ky-	8.cc\	Ky-	.	.	2ccc\
8A\	(32a\LL	.	(32cc\LL	8ryy	.	8e-X\	-ri-	8e-X\	-ri-	.	.	.	.	.
.	32g\	.	32b-\	.	.	.	.	.	.	.	.	.	.	.
.	32a\	.	32cc\	.	.	.	.	.	.	16cc\	-ri-	.	.	.
.	32b-\JJJ)	.	32dd\JJJ)	.	.	.	.	.	.	.	.	.	.	.
!	!	!	!	!	!	!	!	!LO:LB:g=original	!	!	!	!	!	!
8c\	16cc/LL	.	16ee-\LL	4ryy	.	8d\	-e	8d\	-e	8dd\	-e	.	.	.
.	16b-/	.	16dd\	.	.	.	.	.	.	.	.	.	.	.
8e-X\J	16e-X/	.	16cc\	.	.	8B-\	e-	8B-\	e-	8b-\	e-	.	.	.
.	16d/JJ	.	16b-\JJ	.	.	.	.	.	.	.	.	.	.	.
!LO:TX:a:t=P:problem:mixed beam	!	!	!	!	!	!	!	!	!	!	!	!	!	!
8c\L	8.c/L	.	8.a\L	2ryy	.	8A\L	-ley-	8A/L	-ley-	4a\	-ley-	.	.	4ccc\
8A\	.	.	.	.	.	8F\J	.	8F/J	.	.	.	.	.	.
.	32d/LL	.	32b-\LL	.	.	.	.	.	.	.	.	.	.	.
.	32e-/JJJ	.	32cc\JJJ	.	.	.	.	.	.	.	.	.	.	.
8B-\	8d/L	.	8b-\L	.	.	4B-\	-son	4B-\	-son	4b-\	-son	.	.	4ddd\
8BB-/J	8d/J	.	8f\J	.	.	.	.	.	.	.	.	.	.	.
!	!	!	!LO:LB:g=original	!LO:LB:g=original	!	!	!	!	!	!	!	!	!	!
=37	=37	=37	=37	=37	=37	=37	=37	=37	=37	=37	=37	=37	=37	=37
*	*	*	*	*	*	*	*ij	*	*ij	*	*ij	*	*	*
8F\L	8cc\L	.	8f\L	8ee-X/	.	8F\	Ky-	8F/	Ky-	8.cc\	Ky-	.	.	2ccc\
8A\	(32a\LL	.	(32cc\LL	8ryy	.	8e-X\	-ri-	8e-X\	-ri-	.	.	.	.	.
.	32g\	.	32b-\	.	.	.	.	.	.	.	.	.	.	.
.	32a\	.	32cc\	.	.	.	.	.	.	16cc\	-ri-	.	.	.
.	32b-\JJJ)	.	32dd\JJJ)	.	.	.	.	.	.	.	.	.	.	.
8c\	16cc/LL	.	16ee-\LL	4ryy	.	8d\	-e	8d\	-e	8dd\	-e	.	.	.
.	16b-/	.	16dd\	.	.	.	.	.	.	.	.	.	.	.
8e-X\J	16e-X/	.	16cc\	.	.	8B-\	e-	8B-\	e-	8b-\	e-	.	.	.
.	16d/JJ	.	16b-\JJ	.	.	.	.	.	.	.	.	.	.	.
!LO:TX:a:t=P:problem:mixed beam	!	!	!	!	!	!	!	!	!	!	!	!	!	!
8c\L	8.c/L	.	8.a\L	2ryy	.	8A\L	-ley-	8A/L	-ley-	4a\	-ley-	.	.	4ccc\
8A\	.	.	.	.	.	8F\J	.	8F/J	.	.	.	.	.	.
.	32d/LL	.	32b-\LL	.	.	.	.	.	.	.	.	.	.	.
.	32e-/JJJ	.	32cc\JJJ	.	.	.	.	.	.	.	.	.	.	.
!	!	!	!	!	!	!LO:N:vis=8	!	!	!	!	!	!	!	!
8B-\	8d/L	.	8b-\L	.	.	4B-\	-son	8B-\	-son	4b-\	-son	.	.	4ddd\
*	*	*	*	*	*	*	*Xij	*	*Xij	*	*Xij	*	*	*
8BB-/J	8d/J	.	8f\J	.	.	.	.	8r	.	.	.	.	.	.
*	*	*	*v	*v	*	*	*	*	*	*	*	*	*	*
=38	=38	=38	=38	=38	=38	=38	=38	=38	=38	=38	=38	=38	=38
8G\L	8dd\L	.	8ff\L	.	8G\	Ky-	8G/	Ky-	8.dd\	Ky-	.	.	2ddd\
8Bn\	(32bn\LL	.	32dd\LL	.	8f\	-ri-	8f\	-ri-	.	.	.	.	.
.	32a\	.	32cc\	.	.	.	.	.	.	.	.	.	.
.	32b\	.	32dd\	.	.	.	.	.	16dd\	-ri-	.	.	.
.	32cc\JJJ)	.	32een\JJJ	.	.	.	.	.	.	.	.	.	.
8d\	16dd\LL	.	16ff\LL	.	8en\	-e	8en\	-e	8een\	-e	.	.	.
.	16cc\	.	16ee\	.	.	.	.	.	.	.	.	.	.
8f\J	16b\	.	16dd\	.	8c\	e-	8c\	e-	8cc\	e-	.	.	.
.	16a\JJ	.	16cc\JJ	.	.	.	.	.	.	.	.	.	.
!LO:TX:a:t=P:problem:mixed beam	!LO:LB:g=original	!	!	!	!	!	!	!	!	!	!	!	!
8e\L	8.d/L	.	8.bn\L	.	8Bn\L	-ley-	8Bn/L	-ley-	4bn\	-ley-	.	.	4ddd\
8B\	.	.	.	.	8G\J	.	8G/J	.	.	.	.	.	.
.	32e/LL	.	32cc\LL	.	.	.	.	.	.	.	.	.	.
.	32f/JJJ	.	32dd\JJJ	.	.	.	.	.	.	.	.	.	.
8c\	8e/L	.	8cc\L	.	4c\	-son	4c\	-son	4cc\	-son	.	.	4eeen\
8C/J	8e/J	.	8g\J	.	.	.	.	.	.	.	.	.	.
=39	=39	=39	=39	=39	=39	=39	=39	=39	=39	=39	=39	=39	=39
*	*	*	*	*	*	*ij	*	*ij	*	*ij	*	*	*
8G\L	8dd\L	.	8ff\L	.	8G\	Ky-	8G/	Ky-	8.dd\	Ky-	1r	1r	2ddd\
8Bn\	(32bn\LL	.	32dd\LL	.	8f\	-ri-	8f\	-ri-	.	.	.	.	.
.	32a\	.	32cc\	.	.	.	.	.	.	.	.	.	.
.	32b\	.	32dd\	.	.	.	.	.	16dd\	-ri-	.	.	.
.	32cc\JJJ)	.	32ee\JJJ	.	.	.	.	.	.	.	.	.	.
8d\	16dd\LL	.	16ff\LL	.	8e\	-e	8e\	-e	8ee\	-e	.	.	.
.	16cc\	.	16ee\	.	.	.	.	.	.	.	.	.	.
8f\J	16b\	.	16dd\	.	8c\	e-	8c\	e-	8cc\	e-	.	.	.
.	16a\JJ	.	16cc\JJ	.	.	.	.	.	.	.	.	.	.
!LO:TX:a:t=P:problem:mixed beam	!	!	!	!	!	!	!	!	!	!	!	!	!
8e\L	8.d/L	.	8.bn\L	.	8Bn\L	-ley-	8Bn/L	-ley-	4bn\	-ley-	.	.	4ddd\
8B\	.	.	.	.	8G\J	.	8G/J	.	.	.	.	.	.
.	32e/LL	.	32cc\LL	.	.	.	.	.	.	.	.	.	.
.	32f/JJJ	.	32dd\JJJ	.	.	.	.	.	.	.	.	.	.
8c\	8e/L	.	8cc\L	.	4c\	-son	4c\	-son	4cc\	-son	.	.	4eeen\
*	*	*	*	*	*	*Xij	*	*Xij	*	*Xij	*	*	*
8C/J	8e/J	.	8g\J	.	.	.	.	.	.	.	.	.	.
!	!	!	!	!	!	!LO:LB:g=original	!	!	!LO:LB:g=original	!	!	!	!
=40	=40	=40	=40	=40	=40	=40	=40	=40	=40	=40	=40	=40	=40
8C\L	8ggL 8cc\	.	8bb-X 8cc 8e/	.	8C/	Ky-	8C/	Ky-	8.ee\	Ky-	2c/	2g\	2eeen\
8E\	(32ee\LL	.	32gg\LLL	.	8G\	-ri-	8G/	-ri-	.	.	.	.	.
.	32dd\	.	32ff\	.	.	.	.	.	.	.	.	.	.
.	32ee\	.	32gg\	.	.	.	.	.	16ee\	-ri-	.	.	.
.	32ff\JJJ)	.	32aa\JJJ	.	.	.	.	.	.	.	.	.	.
8G\	16gg\LL	.	16bb-\LL	.	8F\	-e	8F/	-e	8ff\	-e	.	.	.
.	16ee\	.	16aa\	.	.	.	.	.	.	.	.	.	.
8B-X\J	16b-\	.	16gg\	.	8A\	e-	8A/	e-	8ff\	e-	.	.	.
.	16a\JJ	.	16ff\JJ	.	.	.	.	.	.	.	.	.	.
!LO:TX:a:t=P:problem:mixed beam	!	!	!	!	!	!	!	!	!	!	!	!	!
8E\L	8.g/L	.	8.ee\L	.	8B-\L	.	8B-/L	-ley-	4ee\	-ley-	4c/	4g\	4eee\
8C\	.	.	.	.	8G\J	.	8G/J	.	.	.	.	.	.
.	32a/LL	.	32ff\LL	.	.	.	.	.	.	.	.	.	.
.	32b-/JJJ	.	32gg\JJJ	.	.	.	.	.	.	.	.	.	.
8F\	8a/L	.	8ff\L	.	8c\	-ley-	8c\	.	4ff\	-son	4f\	4a\	4fff\
8FF/J	8a/J	.	8cc\J	.	8C/	-son	8C/	-son	.	.	.	.	.
!	!	!	!LO:LB:g=original	!	!	!	!	!	!	!	!	!LO:LB:g=original	!
=41	=41	=41	=41	=41	=41	=41	=41	=41	=41	=41	=41	=41	=41
*	*	*	*	*	*	*ij	*	*ij	*	*ij	*	*	*
8C\L	8ggL 8cc\	.	8bb- 8cc 8e/	.	8C\	Ky-	8C/	Ky-	8.ee\	Ky-	2c/	2g\	2eeen\
8E\	(32ee\LL	.	32gg\LLL	.	8G\	-ri-	8G/	-ri-	.	.	.	.	.
.	32dd\	.	32ff\	.	.	.	.	.	.	.	.	.	.
.	32ee\	.	32gg\	.	.	.	.	.	16ee\	-ri-	.	.	.
.	32ff\JJJ)	.	32aa\JJJ	.	.	.	.	.	.	.	.	.	.
8G\	16gg\LL	.	16bb-\LL	.	8F\	-e	8F/	-e	8ff\	-e	.	.	.
.	16ee\	.	16aa\	.	.	.	.	.	.	.	.	.	.
8B-\J	16b-\	.	16gg\	.	8A\	e-	8A/	e-	8ff\	e-	.	.	.
.	16a\JJ	.	16ff\JJ	.	.	.	.	.	.	.	.	.	.
!LO:TX:a:t=P:problem:mixed beam	!	!	!	!	!	!	!	!	!	!	!	!	!
8E\L	8.g/L	.	8.ee\L	.	8B-\L	-ley-	8B-/L	-ley-	4ee\	-ley-	4c/	4g\	4eee\
8C\	.	.	.	.	8G\J	.	8G/J	.	.	.	.	.	.
.	32a/LL	.	32ff\LL	.	.	.	.	.	.	.	.	.	.
.	32b-/JJJ	.	32gg\JJJ	.	.	.	.	.	.	.	.	.	.
8F\	8a/L	.	8.ff\L	.	8c\	.	8c\	.	4ff\	-son	4f\	4a\	4fff\
*	*	*	*	*	*	*	*	*	*	*Xij	*	*	*
8FF/J	8a/J	.	.	.	8F\	-son	8F/	-son	.	.	.	.	.
*	*	*	*	*	*	*Xij	*	*Xij	*	*	*	*	*
.	.	.	16cc\Jk	.	.	.	.	.	.	.	.	.	.
!LO:LB:g=original	!LO:LB:g=original	!	!	!	!	!	!LO:LB:g=original	!	!	!	!	!	!
=42	=42	=42	=42	=42	=42	=42	=42	=42	=42	=42	=42	=42	=42
!LO:TX:a:t=P:problem:mixed beam	!	!	!	!	!	!	!	!	!	!	!	!	!
8BB-/L	8.b-\L	.	8dd\L	.	8B-\L	e-	8B-\L	e-	4ee\	e-	4g\	4b-\	4ddd\
8G\	.	.	8bb-\J	.	8A\	.	8A\	.	.	.	.	.	.
.	16dd\Jk	.	.	.	.	.	.	.	.	.	.	.	.
8E\	16dd\LL	.	16bb-\LL	.	8G\	.	8G\	.	4ff\	.	4f\	4a\	4fff\
.	16cc\	.	16aa\	.	.	.	.	.	.	.	.	.	.
8F\J	16b-\	.	16gg\	.	8F\J	.	8F\J	.	.	.	.	.	.
.	16a\JJ	.	16ff\JJ	.	.	.	.	.	.	.	.	.	.
!LO:TX:a:t=P:problem:mixed beam	!	!	!	!	!	!	!	!	!	!	!	!	!
8c\L	8a/L	.	8ff\L	.	8c\	-ley-	8c\	-ley-	8ff\	-ley-	8f\L	8a\L	8fff\L
8C/J	8g/J	.	8ee\J	.	8C/	-son	8C/	-son	8ee\	-son	8c\J	8g\J	8eee\J
4r	4r	.	4r	.	4r	.	4r	.	4r	.	4r	4r	4r
=43	=43	=43	=43	=43	=43	=43	=43	=43	=43	=43	=43	=43	=43
*	*^	*	*	*	*	*	*	*	*	*	*	*	*
8.F\L	8.a/L	8.f\L	.	8.ffL 8.a\	.	8.F\	Ky-	8.F/	Ky-	8.ff\	Ky-	8.A/L	8.f\L	8.fff\L
16A\Jk	16a/Jk	16f\Jk	.	16ffJk 16a\	.	16F\	-ri-	16F/	-ri-	16ff\	-ri-	16A/Jk	16f\Jk	16fff\Jk
8c\L	16a/LL	4ryy	.	16ff\LL	.	8A\	-e	8A/	-e	8ff\	-e	8A/L	8f\L	8fff\L
.	16f/	.	.	16cc\	.	.	.	.	.	.	.	.	.	.
8f\J	16cc/	.	.	16aa\	.	8c\	e-	8c/	e-	8ff\	e-	8c/J	8a\J	8fff\J
.	16a/JJ	.	.	16ff\JJ	.	.	.	.	.	.	.	.	.	.
8C/L	(32cc\LLL	2ryy	.	(32aa\LLL	.	8C/	-ley-	8C/	-ley-	8ee\	-ley-	8c/L	8g\L	8eee\L
.	32b-\	.	.	32gg\	.	.	.	.	.	.	.	.	.	.
.	32a\	.	.	32ff\	.	.	.	.	.	.	.	.	.	.
.	32b-\JJ)	.	.	32gg\JJ)	.	.	.	.	.	.	.	.	.	.
8F/J	8a\J	.	.	8ff\J	.	8F\	-son	8F/	-son	8ff\	-son	8A/J	8f\J	8fff\J
4r	8r	.	.	8r	.	4r	.	4r	.	4r	.	4r	4r	4r
.	16aa\LL	.	.	16ccc\LL	.	.	.	.	.	.	.	.	.	.
.	16ff\JJ	.	.	16aa\JJ	.	.	.	.	.	.	.	.	.	.
*	*v	*v	*	*	*	*	*	*	*	*	*	*	*	*
!	!	!	!	!	!	!	!	!	!	!	!	!	!LO:LB:g=original
=44	=44	=44	=44	=44	=44	=44	=44	=44	=44	=44	=44	=44	=44
4r	16b-\LL	.	16gg\LL	.	4r	.	4r	.	4r	.	4r	4r	4r
.	16a\	.	16ff\	.	.	.	.	.	.	.	.	.	.
.	16cc\	.	16aa\	.	.	.	.	.	.	.	.	.	.
.	16a\JJ	.	16ff\JJ	.	.	.	.	.	.	.	.	.	.
8r	16b-\LL	.	16dd\LL	.	8r	.	8r	.	8r	.	8r	8r	8r
.	16a\	.	16cc\	.	.	.	.	.	.	.	.	.	.
8F\	16dd\	.	16ff\	.	8F\	e-	8F/	e-	8cc\	e-	8f\L	8a\L	8fff\L
.	16b-\JJ	.	16dd\JJ	.	.	.	.	.	.	.	.	.	.
8C\L	16a/LL	.	16cc\LL	.	8C/	-ley-	8C/	-ley-	8b-\	-ley-	8c\	8g\	8eee\
.	16g/J	.	16b-\J	.	.	.	.	.	.	.	.	.	.
8F\J	8f/J	.	8a\J	.	8F\	-son	8F/	-son	8a\	-son	8A\J	8f\J	8fff\J
!	!	!	!	!	!LO:LB:g=original	!	!	!	!	!	!	!	!
4r	8r	.	8r	.	4r	.	4r	.	4r	.	4r	4r	4r
.	16aa\LL	.	16ccc\LL	.	.	.	.	.	.	.	.	.	.
.	16ff\JJ	.	16aa\JJ	.	.	.	.	.	.	.	.	.	.
=45	=45	=45	=45	=45	=45	=45	=45	=45	=45	=45	=45	=45	=45
4r	16b-\LL	.	16gg\LL	.	4r	.	4r	.	4r	.	4r	4r	4r
.	16a\	.	16ff\	.	.	.	.	.	.	.	.	.	.
.	16cc\	.	16aa\	.	.	.	.	.	.	.	.	.	.
.	16a\JJ	.	16ff\JJ	.	.	.	.	.	.	.	.	.	.
8r	16b-\LL	.	16dd\LL	.	8r	.	8r	.	8r	.	8r	8r	8r
.	16a\	.	16cc\	.	.	.	.	.	.	.	.	.	.
!	!	!	!	!	!	!	!	!	!LO:LB:g=original	!	!	!	!
8F\L	16dd\	.	16ff\	.	8F\	e-	8F/	e-	8cc\	e-	8f/L	8a\L	8fff\L
.	16b-\JJ	.	16dd\JJ	.	.	.	.	.	.	.	.	.	.
8C\	16a/LL	.	16cc\LL	.	8C/	-ley-	8C/	-ley-	8b-\	-ley-	8c/	8g\	8eee\
.	16g/J	.	16b-\J	.	.	.	.	.	.	.	.	.	.
8F\J	8f/J	.	8a\J	.	8F\	-son	8F/	-son	8a\	-son	8A/J	8f\J	8fff\J
!	!	!	!LO:LB:g=original	!	!	!	!	!	!	!	!	!	!
4r	8r	.	8r	.	4r	.	4r	.	4r	.	4r	4r	4r
.	32f/LLL	.	32f/LLL	.	.	.	.	.	.	.	.	.	.
.	32e/	.	32e/	.	.	.	.	.	.	.	.	.	.
.	32f/	.	32f/	.	.	.	.	.	.	.	.	.	.
.	32g/JJJ	.	32g/JJJ	.	.	.	.	.	.	.	.	.	.
=46	=46	=46	=46	=46	=46	=46	=46	=46	=46	=46	=46	=46	=46
!LO:TX:a:t=P:problem:mixed beam	!	!	!	!	!	!	!	!	!	!	!	!	!
8FF/L	8f/L	.	8a\L	.	8.F\	Ky-	8.F/	Ky-	8.cc\	Ky-	4A/	4f\	2fff\
8F\	32a/LL	.	32ff\LL	.	.	.	.	.	.	.	.	.	.
.	32g/	.	32ee\	.	.	.	.	.	.	.	.	.	.
.	32a/	.	32ff\	.	16G\	-ri-	16G/	-ri-	16ff\	-ri-	.	.	.
.	32b-/JJJ	.	32gg\JJJ	.	.	.	.	.	.	.	.	.	.
!	!LO:LB:g=original	!	!	!	!	!	!	!	!	!	!	!	!
8A\	16ff\LL	.	16aa\LL	.	8A\	-e	8A/	-e	8ff\	-e	4f\	4a\	.
.	16cc\	.	16ff\	.	.	.	.	.	.	.	.	.	.
8F\J	16aa\	.	16ccc\	.	8F\	e-	8F/	e-	8ff\	e-	.	.	.
.	16ff\JJ	.	16aa\JJ	.	.	.	.	.	.	.	.	.	.
!LO:TX:a:t=P:problem:mixed beam	!	!	!	!	!	!	!	!	!	!	!	!	!
8c\L	16ff\LL	.	16aa\LL	.	4c\	-ley-	4c\	-ley-	4ff\	-ley-	2c/	2g\	2eee\
.	16ee\J	.	16gg\J	.	.	.	.	.	.	.	.	.	.
8C/J	8ee\J	.	8gg\J	.	.	.	.	.	.	.	.	.	.
4C/	8r	.	8r	.	4C/	-son	4C/	-son	4ee\	-son	.	.	.
.	32e/LLL	.	(32cc\LLL	.	.	.	.	.	.	.	.	.	.
.	32d/	.	32bn\	.	.	.	.	.	.	.	.	.	.
.	32e/	.	32cc\	.	.	.	.	.	.	.	.	.	.
.	32f/JJJ	.	32dd\JJJ)	.	.	.	.	.	.	.	.	.	.
!	!	!	!	!	!	!	!	!	!	!	!LO:LB:g=original	!	!
=47	=47	=47	=47	=47	=47	=47	=47	=47	=47	=47	=47	=47	=47
*	*	*	*	*	*	*	*	*	*	*ij	*	*	*
8r	8e/	.	8ee\L	.	8.C/	Ky-	8.C/	Ky-	8.cc\	Ky-	4A/	4g\	2eee\
8C\L	(32ee\LLL	.	(32gg\LL	.	.	.	.	.	.	.	.	.	.
.	32dd\	.	32ff\	.	.	.	.	.	.	.	.	.	.
.	32ee\	.	32gg\	.	16D/	-ri-	16D/	-ri-	16ee\	-ri-	.	.	.
.	32ff\JJJ)	.	32aa\JJJ)	.	.	.	.	.	.	.	.	.	.
8E\	16gg\LL	.	16bb-\LL	.	8E\	-e	8E/	-e	8gg\	-e	4f\	4b-\	.
.	16ee\	.	16gg\	.	.	.	.	.	.	.	.	.	.
8C\J	16bb-\	.	16ddd\	.	8C/	e-	8C/	e-	8gg\	e-	.	.	.
.	16gg\JJ	.	16bb-\JJ	.	.	.	.	.	.	.	.	.	.
!LO:TX:a:t=P:problem:mixed beam	!	!	!	!	!	!	!	!	!	!	!	!	!
8F\L	16gg\LL	.	16bb-\LL	.	4F\	-ley-	4F/	-ley-	4gg\	-ley-	2A/	2a\	2fff\
.	16ff\J	.	16aa\J	.	.	.	.	.	.	.	.	.	.
8FF/J	8ff\J	.	8aa\J	.	.	.	.	.	.	.	.	.	.
4F\	8r	.	8r	.	4FF/	-son	4FF/	-son	4ff\	-son	.	.	.
*	*	*	*	*	*	*	*	*	*	*Xij	*	*	*
.	16aa\LL	.	16ccc\LL	.	.	.	.	.	.	.	.	.	.
.	16bb-\JJ	.	16ddd\JJ	.	.	.	.	.	.	.	.	.	.
!LO:LB:g=original	!	!	!	!	!	!	!LO:LB:g=original	!	!	!	!	!	!
=48	=48	=48	=48	=48	=48	=48	=48	=48	=48	=48	=48	=48	=48
8F\L	16bb-\LL	.	16ddd\LL	.	8F\	Ky-	8F/	Ky-	4aa\	e-	4g\	4b-\	4eee\
.	16aa\	.	16ccc\	.	.	.	.	.	.	.	.	.	.
8A\	16aa\	.	16ccc\	.	8G\	-ri-	8G/	-ri-	.	.	.	.	.
.	16gg\JJ	.	16bb-\JJ	.	.	.	.	.	.	.	.	.	.
8G\	16gg\LL	.	16bb-\LL	.	8A\	-e	8A/	-e	4ff\	.	4f\	4a\	4fff\
.	16ff\	.	16aa\	.	.	.	.	.	.	.	.	.	.
8F\J	16aa\	.	16ccc\	.	8F\	e-	8F/	e-	.	.	.	.	.
.	16ff\JJ	.	16aa\JJ	.	.	.	.	.	.	.	.	.	.
!LO:TX:a:t=P:problem:mixed beam	!	!	!	!	!	!	!	!	!	!	!	!	!
8c\L	8ff\L	.	8aa\L	.	8c\	-ley-	8c\	-ley-	8ff\	-ley-	8f\L	8a\L	8ggg\L
8C/J	8ee\J	.	8gg\J	.	8C/	-son	8C/	-son	8ee\	-son	8c\J	8g\J	8eee\J
4r	4r	.	4r	.	4r	.	4r	.	4r	.	4r	8r	4r
.	.	.	.	.	.	.	.	.	.	.	.	8r	.
!	!	!	!	!	!LO:LB:g=original	!	!	!	!	!	!	!	!
=49	=49	=49	=49	=49	=49	=49	=49	=49	=49	=49	=49	=49	=49
!LO:TX:a:t=4.	!	!LO:DY:b:rj:t=p&colon;	!	!LO:DY:b:rj:t=p.	!	!	!	!	!	!	!	!	!
00r	4f/	p	4f/	p	4A\	Chri-	4A/	Chri-	4cc\	Chri-	4a\	4cc\	4ccc\
.	8a/L	.	8a/L	.	8A\	-ste	8A/	-ste	8cc\	-ste	8a\L	8cc\L	8ccc\L
.	8cc/J	.	8cc/J	.	8G\	e-	8G/	e-	8b-\	e-	8g\J	8b-\J	8bb-\J
.	8ff\L	.	8ff\L	.	16G\LL	-ley-	16G/LL	-ley-	8b-\	-ley-	16g\LL	16b-\LL	16bb-\LL
.	.	.	.	.	16F\JJ	.	16F/JJ	.	.	.	16f\J	16a\J	16aa\
.	8cc\	.	8cc\	.	8F\	-son	8F/	-son	8a\	-son	8f\J	8a\J	16fff\
.	.	.	.	.	.	.	.	.	.	.	.	.	16eee\JJ
.	8a\	.	8a\	.	4r	.	4r	.	4r	.	4r	4r	16ddd\LL
.	.	.	.	.	.	.	.	.	.	.	.	.	16ccc\
.	8f\J	.	8f\J	.	.	.	.	.	.	.	.	.	16bb-\
.	.	.	.	.	.	.	.	.	.	.	.	.	16aa\JJ
!	!	!	!LO:LB:g=original	!	!	!	!	!	!	!	!	!	!
=50	=50	=50	=50	=50	=50	=50	=50	=50	=50	=50	=50	=50	=50
*	*	*	*	*	*	*	*	*	*	*ij	*	*	*
.	4c/	.	4c/	.	4G\	Chri-	4G/	Chri-	4b-\	Chri-	4g\	4b-\	4bb-\
.	8e/L	.	8e/L	.	8G\	-ste	8G/	-ste	8b-\	-ste	8g\L	8b-\L	8bb-\L
.	8g/J	.	8g/J	.	8F\	e-	8F/	e-	8a\	e-	8f\J	8a\J	8aa\J
!	!	!	!	!	!	!	!	!	!	!	!	!LO:LB:g=original	!
.	8cc\L	.	8cc\L	.	16F\LL	-ley-	16F/LL	-ley-	8a\	-ley-	16f\LL	16a\LL	16aa\LL
.	.	.	.	.	16E\JJ	.	16E/JJ	.	.	.	16c\J	16g\J	16gg\
.	8g\	.	8g\	.	8E\	-son	8E/	-son	8g\	-son	8c\J	8g\J	16ddd\
*	*	*	*	*	*	*	*	*	*	*Xij	*	*	*
.	.	.	.	.	.	.	.	.	.	.	.	.	16ccc\JJ
.	8e\	.	8e\	.	4r	.	4r	.	4r	.	4r	4r	16ccc\LL
.	.	.	.	.	.	.	.	.	.	.	.	.	16bb-\
.	8c\J	.	8c\J	.	.	.	.	.	.	.	.	.	16aa\
.	.	.	.	.	.	.	.	.	.	.	.	.	16gg\JJ
!	!	!	!	!	!	!	!	!	!LO:LB:g=original	!	!	!	!LO:LB:g=original
=51	=51	=51	=51	=51	=51	=51	=51	=51	=51	=51	=51	=51	=51
!	!LO:TX:a:t=P:problem:mixed beam	!	!LO:TX:a:t=P:problem:mixed beam	!	!	!	!	!	!	!	!	!	!
.	8ff\L	.	8ff\L	.	4F\	e-	4F/	e-	4a\	e-	4f\	4a\	4aa\
.	8f/	.	8f/	.	.	.	.	.	.	.	.	.	.
.	8cc\	.	8cc\	.	16A\LL	-ley-	16A/LL	-ley-	16cc\LL	-ley-	8g\L	8b-\L	16ccc\LL
.	.	.	.	.	16G\	.	16G/	.	16b-\	.	.	.	16bb-\
.	8c/J	.	8c/J	.	16F\	.	16F/	.	16a\	.	8c\J	8g\J	16aa\
.	.	.	.	.	16E\JJ	.	16E/JJ	.	16g\JJ	.	.	.	16gg\JJ
!	!LO:LB:g=original	!	!	!	!	!	!	!	!	!	!	!	!
!	!LO:TX:a:t=P:problem:mixed beam	!	!LO:TX:a:t=P:problem:mixed beam	!	!	!	!	!	!	!	!	!	!
.	8ff\L	.	8ff\L	.	4F\	.	4F/	.	4a\	.	4f\	4a\	4aa\
.	8f/	.	8f/	.	.	.	.	.	.	.	.	.	.
.	8cc\	.	8cc\	.	16A\LL	.	16A/LL	.	16cc\LL	.	8g\L	8b-\L	16ccc\LL
.	.	.	.	.	16G\	.	16G/	.	16b-\	.	.	.	16bb-\
.	8c/J	.	8c/J	.	16F\	.	16F/	.	16a\	.	8c\J	8g\J	16aa\
.	.	.	.	.	16E\JJ	-son	16E/JJ	-son	16g\JJ	.	.	.	16gg\JJ
=52	=52	=52	=52	=52	=52	=52	=52	=52	=52	=52	=52	=52	=52
.	8f/L	.	8f/L	.	8.F\	e-	8.F/	e-	8.a\L	.	4f\	4a\	8.aa\L
.	8g/	.	8g/	.	.	.	.	.	.	.	.	.	.
.	.	.	.	.	16A\	-ley-	16A/	.	16cc\Jk	.	.	.	16ccc\Jk
.	8a/	.	8a/	.	16A\LL	.	16A/LL	-ley-	16cc\LL	.	8g\L	8b-\L	16ccc\LL
.	.	.	.	.	16G\JJ	.	16G/	.	16b-\	.	.	.	16bb-\
.	8f/J	.	8f/J	.	16G\LL	.	16G/	.	16b-\	.	8f\J	8a\J	16bb-\
.	.	.	.	.	16F\JJ	.	16F/JJ	.	16a\JJ	.	.	.	16aa\JJ
!	!LO:TX:a:t=P:problem:mixed beam	!	!LO:TX:a:t=P:problem:mixed beam	!	!	!	!	!	!	!	!	!	!
.	8cc\L	.	8cc\L	.	8F\	.	8F/	.	8a\	.	8f\L	8a\L	8aa\L
.	8c/J	.	8c/J	.	8E\	-son	8E/	-son	8g\	-son	8c\J	8g\J	8gg\J
.	4r	.	4r	.	4r	.	4r	.	4r	.	4r	4r	4r
!	!	!	!	!	!LO:LB:g=original	!	!	!	!	!	!LO:LB:g=original	!	!
=53	=53	=53	=53	=53	=53	=53	=53	=53	=53	=53	=53	=53	=53
*	*^	*	*	*	*	*	*	*	*	*	*	*	*
*	*tremolo	*tremolo	*	*	*	*	*	*	*	*	*	*	*	*
!LO:TX:a:t=P:problem:mixed beam	!	!	!LO:DY:b:rj:t=for	!	!	!	!	!	!	!	!	!	!	!
8c\L	16b-/LL	16g\LL	f	8bb- 8cc 8e/	.	8C/	Ky-	8C/	Ky-	8.ee\	Ky-	2c/	2g\	2eee\
.	16b-/	16g\	.	.	.	.	.	.	.	.	.	.	.	.
!	!	!	!	!	!LO:DY:b:t=for	!	!	!	!	!	!	!	!	!
8C/J	16b-/	16g\	.	(32gg\LLL	f	8B-\	-ri-	8B-\	-ri-	.	.	.	.	.
.	.	.	.	32ff\	.	.	.	.	.	.	.	.	.	.
.	16b-/	16g\	.	32gg\	.	.	.	.	.	16ee\	-ri-	.	.	.
.	.	.	.	32aa\JJJ)	.	.	.	.	.	.	.	.	.	.
8r	16b-/	16g\	.	16bb-\LL	.	8A\	-e	8A/	-e	8ff\	-e	.	.	.
.	16b-/	16g\	.	16aa\	.	.	.	.	.	.	.	.	.	.
8C/	16b-/	16g\	.	16gg\	.	8F\	e-	8F/	e-	8ff\	e-	.	.	.
.	16b-/JJ	16g\JJ	.	16ff\JJ	.	.	.	.	.	.	.	.	.	.
8G\L	16b-/LL	16g\LL	.	8.ee\L	.	8E\L	-ley-	8E/L	-ley-	4ee\	-ley-	4c/	4g\	4eee\
.	16b-/	16g\	.	.	.	.	.	.	.	.	.	.	.	.
8B-\	16b-/	16g\	.	.	.	8C\J	.	8C/J	.	.	.	.	.	.
.	16b-/JJ	16g\JJ	.	32ff\LL	.	.	.	.	.	.	.	.	.	.
.	.	.	.	32gg\JJJ	.	.	.	.	.	.	.	.	.	.
!	!	!	!	!	!	!	!	!LO:LB:g=original	!	!	!	!	!	!
8A\	16a/LL	16f\LL	.	8ff\L	.	8F\	-son	8F/	-son	4ff\	-son	4f\	4a\	4fff\
.	16a/	16f\	.	.	.	.	.	.	.	.	.	.	.	.
8F\J	16a/	16f\	.	8cc\J	.	8r	.	8r	.	.	.	.	.	.
.	16a/JJ	16f\JJ	.	.	.	.	.	.	.	.	.	.	.	.
=54	=54	=54	=54	=54	=54	=54	=54	=54	=54	=54	=54	=54	=54	=54
!LO:TX:a:t=P:problem:mixed beam	!	!	!	!	!	!	!	!	!	!	!	!	!	!
*	*	*	*	*	*	*	*ij	*	*ij	*	*ij	*	*	*
8E\L	16b-/LL	16g\LL	.	8bb- 8cc 8e/	.	8C/	Ky-	8C/	Ky-	8.ee\	Ky-	2c/	2g\	2eee\
.	16b-/	16g\	.	.	.	.	.	.	.	.	.	.	.	.
8C\	16b-/	16g\	.	(32gg\LLL	.	8B-\	-ri-	8B-\	-ri-	.	.	.	.	.
.	.	.	.	32ff\	.	.	.	.	.	.	.	.	.	.
.	16b-/	16g\	.	32gg\	.	.	.	.	.	16ee\	-ri-	.	.	.
.	.	.	.	32aa\JJJ)	.	.	.	.	.	.	.	.	.	.
8F\	16b-/	16g\	.	16bb-\LL	.	8A\	-e	8A/	-e	8ff\	-e	.	.	.
.	16b-/	16g\	.	16aa\	.	.	.	.	.	.	.	.	.	.
8FF/J	16b-/	16g\	.	16gg\	.	8F\	e-	8F/	e-	8ff\	e-	.	.	.
.	16b-/JJ	16g\JJ	.	16ff\JJ	.	.	.	.	.	.	.	.	.	.
8G\L	16b-/LL	16g\LL	.	(8.ee\L	.	8E\L	-ley-	8E/L	-ley-	4ee\	-ley-	4c/	4g\	4eee\
.	16b-/	16g\	.	.	.	.	.	.	.	.	.	.	.	.
8B-\	16b-/	16g\	.	.	.	8C\J	.	8C/J	.	.	.	.	.	.
.	16b-/JJ	16g\JJ	.	32ff\LL	.	.	.	.	.	.	.	.	.	.
.	.	.	.	32gg\JJJ)	.	.	.	.	.	.	.	.	.	.
8A\	16a/LL	16f\LL	.	8ff\L	.	8F\	-son	8F/	-son	4ff\	-son	4f\	4a\	4fff\
.	16a/	16f\	.	.	.	.	.	.	.	.	.	.	.	.
*	*	*	*	*	*	*	*Xij	*	*Xij	*	*Xij	*	*	*
8F\J	16a/	16f\	.	8cc\J	.	8r	.	8r	.	.	.	.	.	.
.	16a/JJ	16f\JJ	.	.	.	.	.	.	.	.	.	.	.	.
*	*v	*v	*	*	*	*	*	*	*	*	*	*	*	*
=55	=55	=55	=55	=55	=55	=55	=55	=55	=55	=55	=55	=55	=55
!LO:TX:a:t=P:problem:mixed beam	!	!	!	!	!	!	!	!	!	!	!	!	!
8B-\L	16dd 16f\LL	.	8ddd\L	.	8BB-/	Ky-	8BB-/	Ky-	8.dd\	Ky-	1F	1f	1fff
.	16dd 16f\	.	.	.	.	.	.	.	.	.	.	.	.
8BB-/	16dd 16f\	.	(32ddd\LL	.	8D\	-ri-	8D/	-ri-	.	.	.	.	.
.	.	.	32ccc\	.	.	.	.	.	.	.	.	.	.
.	16dd 16f\	.	32bb-\	.	.	.	.	.	16dd\	-ri-	.	.	.
.	.	.	32aa\JJJ)	.	.	.	.	.	.	.	.	.	.
8D/	16dd 16f\	.	16bb-\LL	.	8F\	-e	8F/	-e	8dd\	-e	.	.	.
.	16dd 16f\	.	16ff\	.	.	.	.	.	.	.	.	.	.
8F/J	16dd 16f\	.	16dd\	.	8B-\	e-	8B-\	e-	8dd\	e-	.	.	.
.	16dd 16f\JJ	.	16ff\JJ	.	.	.	.	.	.	.	.	.	.
!	!	!	!LO:TX:a:t=P:problem:mixed beam	!	!	!	!	!	!	!	!	!	!
16B-\LL	16dd 16f\LL	.	16b-/LL	.	4d\	-ley-	4d\	-ley-	4dd\	-ley-	.	.	.
16A\	16dd 16f\	.	16ddd\	.	.	.	.	.	.	.	.	.	.
16B-\	16dd 16f\	.	16ddd\	.	.	.	.	.	.	.	.	.	.
16c\JJ	16dd 16f\	.	16ddd\JJ	.	.	.	.	.	.	.	.	.	.
*	*	*	*tremolo	*	*	*	*	*	*	*	*	*	*
16d\LL	16dd 16f\	.	16ddd\LL	.	4B-\	-son	4B-\	-son	4dd\	-son	.	.	.
16B-\	16dd 16f\	.	16ddd\	.	.	.	.	.	.	.	.	.	.
16F\	16dd 16f\	.	16ddd\	.	.	.	.	.	.	.	.	.	.
16D\JJ	16dd 16f\JJ	.	16ddd\JJ	.	.	.	.	.	.	.	.	.	.
!	!	!	!LO:LB:g=original	!	!	!	!	!	!LO:LB:g=original	!	!	!	!
=56	=56	=56	=56	=56	=56	=56	=56	=56	=56	=56	=56	=56	=56
*	*	*	*	*	*	*ij	*	*ij	*	*ij	*	*	*
8A\L	16cc 16f\LL	.	8ccc\L	.	8AA/	Ky-	8AA/	Ky-	8.cc\	Ky-	1f	1a	1ccc
.	16cc 16f\	.	.	.	.	.	.	.	.	.	.	.	.
8F\	16cc 16f\	.	(32ccc\LL	.	8C/	-ri-	8C/	-ri-	.	.	.	.	.
.	.	.	32bb-\	.	.	.	.	.	.	.	.	.	.
.	16cc 16f\	.	32aa\	.	.	.	.	.	16cc\	-ri-	.	.	.
.	.	.	32gg\JJJ)	.	.	.	.	.	.	.	.	.	.
8C\	16cc 16f\	.	16aa\LL	.	8F\	-e	8F/	-e	8cc\	-e	.	.	.
.	16cc 16f\	.	16ff\	.	.	.	.	.	.	.	.	.	.
8AA\J	16cc 16f\	.	16cc\	.	8A\	e-	8A/	e-	8cc\	e-	.	.	.
.	16cc 16f\JJ	.	16ff\JJ	.	.	.	.	.	.	.	.	.	.
!	!	!	!LO:TX:a:t=P:problem:mixed beam	!	!	!	!	!	!	!	!	!	!
16FF/LL	16cc 16f\LL	.	16a/LL	.	4c\	-ley-	4c\	-ley-	4cc\	-ley-	.	.	.
16AA/	16cc 16f\	.	16ccc\	.	.	.	.	.	.	.	.	.	.
16C/	16cc 16f\	.	16ccc\	.	.	.	.	.	.	.	.	.	.
16F/JJ	16cc 16f\	.	16ccc\JJ	.	.	.	.	.	.	.	.	.	.
16A\LL	16cc 16f\	.	16ccc\LL	.	4A\	-son	4A\	-son	4cc\	-son	.	.	.
*	*	*	*	*	*	*Xij	*	*Xij	*	*Xij	*	*	*
16c\	16cc 16f\	.	16ccc\	.	.	.	.	.	.	.	.	.	.
16f\	16cc 16f\	.	16ccc\	.	.	.	.	.	.	.	.	.	.
16F\JJ	16cc 16f\JJ	.	16ccc\JJ	.	.	.	.	.	.	.	.	.	.
!LO:LB:g=original	!	!	!	!	!	!	!	!	!	!	!	!	!
=57	=57	=57	=57	=57	=57	=57	=57	=57	=57	=57	=57	=57	=57
8G\L	16b- 16g\LL	.	8bb- 8cc 8e/	.	8C/	Ky-	8C/	Ky-	8.b-\	Ky-	1F	1g	1bb-
.	16b- 16g\	.	.	.	.	.	.	.	.	.	.	.	.
8E\	16b- 16g\	.	32bb-\LLL	.	8E\	-ri-	8E/	-ri-	.	.	.	.	.
.	.	.	32aa\	.	.	.	.	.	.	.	.	.	.
.	16b- 16g\	.	32gg\	.	.	.	.	.	16b-\	-ri-	.	.	.
.	.	.	32ff\JJJ	.	.	.	.	.	.	.	.	.	.
8C\	16b- 16g\	.	16gg\LL	.	8G\	-e	8G/	-e	8b-\	-e	.	.	.
.	16b- 16g\	.	16ee\	.	.	.	.	.	.	.	.	.	.
8E\J	16b- 16g\	.	16cc\	.	8A\	e-	8A/	e-	8b-\	e-	.	.	.
.	16b- 16g\JJ	.	16ee\JJ	.	.	.	.	.	.	.	.	.	.
!	!	!	!LO:TX:a:t=P:problem:mixed beam	!LO:LB:g=original	!	!	!	!	!	!	!	!	!
16G\LL	16b- 16g\LL	.	16g/LL	.	8B-\L	-ley-	8B-/L	-ley-	4b-\	-ley-	.	.	.
16A\	16b- 16g\	.	16bb-\	.	.	.	.	.	.	.	.	.	.
16B-\	16b- 16g\	.	16bb-\	.	8G\J	.	8G/J	.	.	.	.	.	.
16G\JJ	16b- 16g\	.	16bb-\JJ	.	.	.	.	.	.	.	.	.	.
16F\LL	16b- 16g\	.	16bb-\LL	.	4C/	-son	4C/	-son	4b-\	-son	.	.	.
16E\	16b- 16g\	.	16bb-\	.	.	.	.	.	.	.	.	.	.
16D\	16b- 16g\	.	16bb-\	.	.	.	.	.	.	.	.	.	.
16C\JJ	16b- 16g\JJ	.	16bb-\JJ	.	.	.	.	.	.	.	.	.	.
*	*Xtremolo	*	*Xtremolo	*	*	*	*	*	*	*	*	*	*
=58	=58	=58	=58	=58	=58	=58	=58	=58	=58	=58	=58	=58	=58
8F\L	16ff\LL	.	8aat\L	.	8F\	Ky-	8F/	Ky-	8a\	Ky-	8f\L	8a\L	8aa\L
.	32ee\L	.	.	.	.	.	.	.	.	.	.	.	.
.	32ff\J	.	.	.	.	.	.	.	.	.	.	.	.
8C\	16gg\	.	16bb-\L	.	8C\	-ri-	8C/	-ri-	8b-\	-ri-	8g\	8b-\	8bb-\
.	16ee\JJ	.	16gg\JJ	.	.	.	.	.	.	.	.	.	.
8F\	16ff\LL	.	8aat\L	.	8F\	-e	8F/	-e	8a\	-e	8f\	8a\	8aa\
.	32ee\L	.	.	.	.	.	.	.	.	.	.	.	.
.	32ff\J	.	.	.	.	.	.	.	.	.	.	.	.
8C\J	16gg\	.	16bb-\L	.	8C\	e-	8C/	e-	8b-\	e-	8g\J	8b-\J	8bb-\J
.	16ee\JJ	.	16gg\JJ	.	.	.	.	.	.	.	.	.	.
!	!	!	!LO:TUP:a:problem:klamra łukowa, kropka zamiast numeru	!	!	!	!	!	!	!	!	!	!
8F\L	16ff\LL	.	24aa\LL	.	8F\	-ley-	8F/	-ley-	8a\	-ley-	4f\	4a\	4aa\
.	.	.	24bb-\	.	.	.	.	.	.	.	.	.	.
.	16aa\	.	.	.	.	.	.	.	.	.	.	.	.
.	.	.	24ccc\JJ	.	.	.	.	.	.	.	.	.	.
!	!	!	!LO:TUP:a:problem:klamra łukowa, kropka zamiast numeru	!	!	!	!	!	!	!	!	!	!
8d\	16bb-\	.	24ddd\LL	.	8FF/	-son	8FF/	-son	8b-\	-son	.	.	.
.	.	.	24ccc\	.	.	.	.	.	.	.	.	.	.
.	16gg\JJ	.	.	.	.	.	.	.	.	.	.	.	.
.	.	.	24bb-\JJ	.	.	.	.	.	.	.	.	.	.
8B-\	8ff\L	.	8aa\L	.	4r	.	4r	.	4r	.	4c/	4g\	4r
8c\J	8ee\J	.	8gg\J	.	.	.	.	.	.	.	.	.	.
!	!LO:LB:g=original	!	!	!	!	!	!	!	!	!	!	!	!
=59	=59	=59	=59	=59	=59	=59	=59	=59	=59	=59	=59	=59	=59
4F\	4cc 4f/	.	4ff 4a/	.	4F\	e-	4F/	e-	4r	.	4A/	4f\	4fff\
4A\	4cc 4f/	.	4ff 4a/	.	4A\	.	4A/	.	4ff\	e-	4A/	4f\	4fff\
4B-\	4dd 4f 4B-/	.	4gg 4b-/	.	4B-\	.	4B-/	.	4gg\	-ley-	4c/	4g\	4eee\
4c\	4b- 4g 4c/	.	4ee 4b-/	.	4c\	-ley-	4c\	-ley-	4ee\	.	4c/	4g\	4eee\
!	!	!	!	!	!	!	!	!	!	!	!	!	!LO:LB:g=original
=60	=60	=60	=60	=60	=60	=60	=60	=60	=60	=60	=60	=60	=60
*	*^	*	*	*	*	*	*	*	*	*	*	*	*
8F\L	8a/L	8f\L	.	8ffL 8a/	.	8F\	-son	8F/	-son	8ff\	-son	8A/L	8f\L	8fff\L
8C\	8cc/	8a\	.	8aa 8cc/	.	8f\	e-	8f\	e-	8ff\	e-	8A/	8f\	8fff\
8AA\	8a/	8f\	.	8ff 8a/	.	8c\L	-ley-	8c\L	-ley-	4ff\	-ley-	8A/	8f\	8fff\
8C\J	8cc/J	8a\J	.	8aaJ 8cc/	.	8A\J	.	8A\J	.	.	.	8A/J	8f\J	8fff\J
4FF/	4cc/	4f\	.	4ff 4a/	.	4F\	-son	4F/	-son	8ff\	-son	4A/	4f\	4fff\
.	.	.	.	.	.	.	.	.	.	8r	.	.	.	.
4r	4r	4ryy	.	4r	.	4r	.	4r	.	4r	.	4r	4r	4r
*	*v	*v	*	*	*	*	*	*	*	*	*	*	*	*
==	==	==	==	==	==	==	==	==	==	==	==	==	==
*-	*-	*-	*-	*-	*-	*-	*-	*-	*-	*-	*-	*-	*-
!!!system-decoration: s1,[g1][g2][g3]
!!!RDF**kern: > = above
!!!RDF**kern: < = below
!!!ENC: Marta Lawrence
!!!END: 2020-09-08
!!!ENC: Berenika Jozajtis
!!!END: 2020-06-02
